!!!!SEGMENT: pl-wtm--r-1686_stefani-jozef--galop-de-salon.krn
!!!cenid: 18xx:2305
!!!COM: Stefani, Józef
!!!COM-rismID:
!!!CDT: 1800/04/16-1876/03/19
!!!CNT: Polish
!!!OTL: Galop de Salon
!!!PDT:
!!!AGN: Secular; Galop
!!!SMS-siglum: PL-Wtm
!!!SMS-shelfmark: R 1686
!!!SMS-shelfwork: W
!!!SMS-variant:
!!!SMS-altvar:
!!!NIFC-rismSourceID: 1001114705
!!!NIFC-islandoraID: pl-wtm:28010
!!!URL-pdf-islandora: https://repozytorium.nifc.pl/islandora/object/pl-wtm%3A28010/datastream/PDF/view
!!!URL-scan: https://polish.musicsources.pl/pl/lokalizacje/galeria/rekopisy/6426 @EN{Scan on Polish Music Herritage in Open Access Website} @PL{Skany w portalu Dziedzictwo Muzyki Polskiej w otwartym dostępie}
!!!ONB-nifc:
!!!AIN: 1 cbass 1 clars 1 cor 1 fagot 1 oboe 2 picco 1 timpa 1 tromp 1 tromt 1 viola 2 violn
!!!key: b
**kern	**dynam	**kern	**dynam	**kern	**dynam	**kern	**dynam	**kern	**dynam	**kern	**dynam	**kern	**dynam	**kern	**dynam	**kern	**dynam	**kern	**dynam	**kern	**dynam	**kern	**dynam	**kern	**dynam
*part13	*part13	*part12	*part12	*part11	*part11	*part10	*part10	*part9	*part9	*part8	*part8	*part7	*part7	*part6	*part6	*part5	*part5	*part4	*part4	*part3	*part3	*part2	*part2	*part1	*part1
*staff13	*	*staff12	*	*staff11	*	*staff10	*	*staff9	*	*staff8	*	*staff7	*	*staff6	*	*staff5	*	*staff4	*	*staff3	*	*staff2	*	*staff1	*
*I"d.a. Timpani	*	*I"C:Baſsi	*	*I"Viole	*	*I"Violini	*	*I"Violini	*	*I"Trombe in d.	*	*I"Trombone	*	*I"Fagotti	*	*I"Corni in d.	*	*I"Clarinetti in C	*	*I"Oboe	*	*I"Picolini	*	*I"Picolini	*
*Itimpa	*	*Icbass	*	*Iviola	*	*Ivioln	*	*Ivioln	*	*Itromp	*	*Itromt	*	*Ifagot	*	*Icor	*	*Iclars	*	*Ioboe	*	*Ipicco	*	*Ipicco	*
*clefF4	*	*clefF4	*	*clefC3	*	*clefG2	*	*clefG2	*	*clefG2	*	*clefF4	*	*clefF4	*	*clefG2	*	*clefG2	*	*clefG2	*	*clefG2	*	*clefG2	*
*	*	*	*	*	*	*	*	*	*	*ITrd-1c-2	*	*	*	*	*	*ITrd-1c-2	*	*	*	*	*	*ITrd-8c-12	*	*ITrd-8c-12	*
*>[A,A,B,B,C,C,D,D,B,B,C,C,D,D,E,E]	*	*>[A,A,B,B,C,C,D,D,B,B,C,C,D,D,E,E]	*	*>[A,A,B,B,C,C,D,D,B,B,C,C,D,D,E,E]	*	*>[A,A,B,B,C,C,D,D,B,B,C,C,D,D,E,E]	*	*>[A,A,B,B,C,C,D,D,B,B,C,C,D,D,E,E]	*	*>[A,A,B,B,C,C,D,D,B,B,C,C,D,D,E,E]	*	*>[A,A,B,B,C,C,D,D,B,B,C,C,D,D,E,E]	*	*>[A,A,B,B,C,C,D,D,B,B,C,C,D,D,E,E]	*	*>[A,A,B,B,C,C,D,D,B,B,C,C,D,D,E,E]	*	*>[A,A,B,B,C,C,D,D,B,B,C,C,D,D,E,E]	*	*>[A,A,B,B,C,C,D,D,B,B,C,C,D,D,E,E]	*	*>[A,A,B,B,C,C,D,D,B,B,C,C,D,D,E,E]	*	*>[A,A,B,B,C,C,D,D,B,B,C,C,D,D,E,E]	*
*k[f#c#]	*	*k[f#c#]	*	*k[f#c#]	*	*k[f#c#]	*	*k[f#c#]	*	*k[f#c#]	*	*k[f#c#]	*	*k[f#c#]	*	*k[f#c#]	*	*k[f#c#]	*	*k[f#c#]	*	*k[f#c#]	*	*k[f#c#]	*
*b:	*	*b:	*	*b:	*	*b:	*	*b:	*	*b:	*	*b:	*	*b:	*	*b:	*	*b:	*	*b:	*	*b:	*	*b:	*
*M4/4	*	*M4/4	*	*M4/4	*	*M4/4	*	*M4/4	*	*M4/4	*	*M4/4	*	*M4/4	*	*M4/4	*	*M4/4	*	*M4/4	*	*M4/4	*	*M4/4	*
*met(c)	*	*met(c)	*	*met(c)	*	*met(c)	*	*met(c)	*	*met(c)	*	*met(c)	*	*met(c)	*	*met(c)	*	*met(c)	*	*met(c)	*	*met(c)	*	*met(c)	*
=1	=1	=1	=1	=1	=1	=1	=1	=1	=1	=1	=1	=1	=1	=1	=1	=1	=1	=1	=1	=1	=1	=1	=1	=1	=1
!!!OMD: allo. - moderato
*>A	*	*>A	*	*>A	*	*>A	*	*>A	*	*>A	*>A	*	*>A	*	*>A	*	*>A	*	*>A	*	*>A	*	*>A	*	*>A
*	*	*	*	*	*	*	*	*	*	*^	*	*	*	*	*	*	*	*	*	*	*	*	*	*	*
*	*	*	*	*all\right	*	*all\right	*	*all\right	*	*all\right	*all\right	*	*all\right	*	*all\right	*	*all\right	*	*all\right	*	*all\right	*	*all\right	*	*all\right	*
*all\right	*	*all\right	*	*2\right	*	*	*	*2\right	*	*	*2\right	*	*2\right	*	*2\right	*	*	*	*2\right	*	*2\right	*	*2\right	*	*2\right	*
*	*	*tremolo	*	*tremolo	*	*tremolo	*	*tremolo	*	*	*	*	*	*	*	*	*	*	*	*	*	*	*	*	*8va	*
!	!	!	!LO:DY:rj	!	!LO:DY:rj	!	!	!	!LO:DY:rj	!	!	!	!	!LO:DY:rj	!	!	!	!LO:DY:rj	!	!	!	!	!	!LO:DY:a:rj:t=ff	!LO:TX:b:t=due	!
2DTT/	.	32BB/LLL	ff	32f#\LLL 32B\	ff	32dd/LLL 32f#/	>	32bb\LLL 32dd\	ff	2dd/	2b\	.	2B\	ff	2d\ 2B\	>	2ff#/ 2f#/	ff	2bb\ 2dd\	>	(>2bb\ 2dd\	ff >	2dddT\	ff	2ffff#t\	.
.	.	32BB/	.	32f#\ 32B\	.	32dd/ 32f#/	.	32bb\ 32dd\	.	.	.	.	.	>	.	.	.	.	.	.	.	.	.	.	.	.
.	.	32BB/	.	32f#\ 32B\	.	32dd/ 32f#/	.	32bb\ 32dd\	.	.	.	>	.	.	.	.	.	.	.	.	.	.	.	.	.	.
.	.	32BB/	.	32f#\ 32B\	.	32dd/ 32f#/	.	32bb\ 32dd\	>	.	.	.	.	.	.	.	.	.	.	.	.	.	.	.	.	.
.	.	32BB/	.	32f#\ 32B\	.	32dd/ 32f#/	.	32bb\ 32dd\	.	.	.	.	.	.	.	.	.	.	.	.	.	.	.	.	.	.
.	.	32BB/	.	32f#\ 32B\	.	32dd/ 32f#/	.	32bb\ 32dd\	.	.	.	.	.	.	.	.	.	.	.	.	.	.	.	.	.	.
.	.	32BB/	.	32f#\ 32B\	.	32dd/ 32f#/	.	32bb\ 32dd\	.	.	.	.	.	.	.	.	.	.	.	.	.	.	.	.	.	.
.	.	32BB/	.	32f#\ 32B\	.	32dd/ 32f#/	.	32bb\ 32dd\	.	.	.	.	.	.	.	.	.	.	.	.	.	.	.	.	.	.
.	.	32BB/	.	32f#\ 32B\	.	32dd/ 32f#/	.	32bb\ 32dd\	.	.	.	.	.	.	.	]	.	.	.	.	.	.	.	.	.	.
.	.	32BB/	.	32f#\ 32B\	.	32dd/ 32f#/	.	32bb\ 32dd\	.	.	.	.	.	.	.	.	.	.	.	.	.	.	.	.	.	.
.	.	32BB/	.	32f#\ 32B\	.	32dd/ 32f#/	.	32bb\ 32dd\	.	.	.	.	.	.	.	.	.	.	.	.	.	.	.	.	.	.
.	.	32BB/	.	32f#\ 32B\	.	32dd/ 32f#/	.	32bb\ 32dd\	.	.	.	.	.	.	.	.	.	.	.	.	.	.	.	.	.	.
.	.	32BB/	.	32f#\ 32B\	.	32dd/ 32f#/	.	32bb\ 32dd\	]	.	.	]	.	.	.	.	.	.	.	.	.	.	.	.	.	.
.	.	32BB/	.	32f#\ 32B\	.	32dd/ 32f#/	.	32bb\ 32dd\	.	.	.	.	.	.	.	.	.	.	.	.	.	.	.	.	.	.
.	.	32BB/	.	32f#\ 32B\	.	32dd/ 32f#/	.	32bb\ 32dd\	.	.	.	.	.	.	.	.	.	.	.	.	.	.	.	.	.	.
.	.	32BB/JJJ	.	32f#\JJJ 32B\	.	32dd/JJJ 32f#/	.	32bb\JJJ 32dd\	.	.	.	.	.	.	.	.	.	.	.	.	.	.	.	.	.	.
*	*	*Xtremolo	*	*Xtremolo	*	*Xtremolo	*	*Xtremolo	*	*	*	*	*	*	*	*	*	*	*	*	*	*	*	*	*	*
8AA\	.	8F#\L	.	8f#\L 8A#X\	.	8cc#/L 8f#/	]	8aa#X\ 8cc#\	.	8cc#/	8a\	.	8F#\	]	8c#\ 8F#\	.	8ff#/ 8f#/	.	8aa#X\ 8cc#\	]	8aa#X\ 8cc#\)	]	8ccc#\	.	8aaaa#X\	.
8r	.	16F#\L	.	16f#\L	.	16f#/L	.	8r	.	8r	8r	.	8r	.	8r	.	8r	.	8r	.	8r	.	8r	.	8r	.
.	.	16G\JJ	.	16g\JJ	.	16g/JJ	.	.	.	.	.	.	.	.	.	.	.	.	.	.	.	.	.	.	.	.
4r	.	16F#\LL	.	16f#\LL	.	16f#/LL	.	4r	.	4r	4r	.	4r	.	4r	.	4r	.	4r	.	4r	.	4r	.	4r	.
.	.	16E\	.	16e\	.	16e/	.	.	.	.	.	.	.	.	.	.	.	.	.	.	.	.	.	.	.	.
.	.	16D\	.	16d\	.	16d/	.	.	.	.	.	.	.	.	.	.	.	.	.	.	.	.	.	.	.	.
.	.	16C#\JJ	.	16c#\JJ	.	16c#/JJ	.	.	.	.	.	.	.	.	.	.	.	.	.	.	.	.	.	.	.	.
=2	=2	=2	=2	=2	=2	=2	=2	=2	=2	=2	=2	=2	=2	=2	=2	=2	=2	=2	=2	=2	=2	=2	=2	=2	=2	=2
.	.	.	.	.	.	16qqB/	.	.	.	.	.	.	.	.	.	.	.	.	.	.	.	.	.	.	.	.
*	*	*tremolo	*	*tremolo	*	*tremolo	*	*tremolo	*	*	*	*	*	*	*	*	*	*	*	*	*	*	*	*	*	*
2DTT/	.	32BB/LLL	.	32f#\LLL 32B\	.	32dd/LLL 32f#/	.	32bb\LLL 32dd\	.	2dd/	2b\	.	(2B\	>	2d\ 2B\	>	2ff#/ 2f#/	.	2bb\ 2dd\	>	2bb\ 2dd\	>	2dddT\	.	2ffff#t\	.
.	.	32BB/	.	32f#\ 32B\	.	32dd/ 32f#/	>	32bb\ 32dd\	.	.	.	.	.	.	.	.	.	.	.	.	.	.	.	.	.	.
.	.	32BB/	.	32f#\ 32B\	.	32dd/ 32f#/	.	32bb\ 32dd\	.	.	.	.	.	.	.	.	.	.	.	.	.	.	.	.	.	.
.	.	32BB/	.	32f#\ 32B\	.	32dd/ 32f#/	.	32bb\ 32dd\	.	.	.	.	.	.	.	.	.	.	.	.	.	.	.	.	.	.
.	.	32BB/	.	32f#\ 32B\	.	32dd/ 32f#/	.	32bb\ 32dd\	.	.	.	.	.	.	.	.	.	.	.	.	.	.	.	.	.	.
.	.	32BB/	.	32f#\ 32B\	.	32dd/ 32f#/	.	32bb\ 32dd\	.	.	.	.	.	.	.	.	.	.	.	.	.	.	.	.	.	.
.	.	32BB/	.	32f#\ 32B\	.	32dd/ 32f#/	.	32bb\ 32dd\	.	.	.	.	.	.	.	.	.	.	.	.	.	.	.	.	.	.
.	.	32BB/	.	32f#\ 32B\	.	32dd/ 32f#/	.	32bb\ 32dd\	.	.	.	.	.	.	.	.	.	.	.	.	.	.	.	.	.	.
.	.	32BB/	.	32f#\ 32B\	.	32dd/ 32f#/	.	32bb\ 32dd\	.	.	.	.	.	.	.	.	.	.	.	.	.	.	.	.	.	.
.	.	32BB/	.	32f#\ 32B\	.	32dd/ 32f#/	.	32bb\ 32dd\	.	.	.	.	.	.	.	.	.	.	.	.	.	.	.	.	.	.
.	.	32BB/	.	32f#\ 32B\	.	32dd/ 32f#/	.	32bb\ 32dd\	.	.	.	.	.	]	.	]	.	.	.	.	.	.	.	.	.	.
.	.	32BB/	.	32f#\ 32B\	.	32dd/ 32f#/	.	32bb\ 32dd\	.	.	.	.	.	.	.	.	.	.	.	.	.	.	.	.	.	.
.	.	32BB/	.	32f#\ 32B\	.	32dd/ 32f#/	.	32bb\ 32dd\	.	.	.	.	.	.	.	.	.	.	.	]	.	.	.	.	.	.
.	.	32BB/	.	32f#\ 32B\	.	32dd/ 32f#/	.	32bb\ 32dd\	.	.	.	.	.	.	.	.	.	.	.	.	.	.	.	.	.	.
.	.	32BB/	.	32f#\ 32B\	.	32dd/ 32f#/	.	32bb\ 32dd\	.	.	.	.	.	.	.	.	.	.	.	.	.	.	.	.	.	.
.	.	32BB/JJJ	.	32f#\JJJ 32B\	.	32dd/JJJ 32f#/	.	32bb\JJJ 32dd\	.	.	.	.	.	.	.	.	.	.	.	.	.	.	.	.	.	.
*	*	*Xtremolo	*	*Xtremolo	*	*Xtremolo	*	*Xtremolo	*	*	*	*	*	*	*	*	*	*	*	*	*	*	*	*	*	*
8AA\	.	8F#\L	.	8f#\ 8A#X\	.	8cc#/L 8f#/	]	8aa#X\ 8cc#\	.	8cc#/	8a\	.	8F#\)	.	8c#\ 8F#\	.	8ff#/ 8f#/	.	8aa#X\ 8cc#\	.	8aa#X\ 8cc#\	]	8ccc#\	.	8aaaa#X\	.
8r	.	16F#\L	.	16f#\LL	.	16f#/L	.	8r	.	8r	8r	.	8r	.	8r	.	8r	.	8r	.	8r	.	8r	.	8r	.
.	.	16G\JJ	.	16g\JJ	.	16g/JJ	.	.	.	.	.	.	.	.	.	.	.	.	.	.	.	.	.	.	.	.
4r	.	16F#\LL	.	16f#\LL	.	16f#/LL	.	4r	.	4r	4r	.	4r	.	4r	.	4r	.	4r	.	4r	.	4r	.	4r	.
.	.	16E\	.	16e\	.	16e/	.	.	.	.	.	.	.	.	.	.	.	.	.	.	.	.	.	.	.	.
.	.	16D\	.	16d\	.	16d/	.	.	.	.	.	.	.	.	.	.	.	.	.	.	.	.	.	.	.	.
.	.	16C#\JJ	.	16c#\JJ	.	16c#/JJ	.	.	.	.	.	.	.	.	.	.	.	.	.	.	.	.	.	.	.	.
*	*	*	*	*	*	*	*	*	*	*v	*v	*	*	*	*	*	*	*	*	*	*	*	*	*	*	*
*	*	*	*	*	*	*	*	*	*	*	*	*	*	*	*	*	*	*	*	*	*	*	*	*	*X8va
=3	=3	=3	=3	=3	=3	=3	=3	=3	=3	=3	=3	=3	=3	=3	=3	=3	=3	=3	=3	=3	=3	=3	=3	=3	=3
!	!	!	!	!	!	!	!	!	!	!	!	!	!	!	!	!	!	!	!	!	!	!LO:TX:a:i:t=loco	!	!LO:TX:a:t=loco	!
*	*	*	*	*tremolo	*	*	*	*	*	*	*	*	*	*	*	*	*	*	*	*	*	*	*	*	*
1r	.	8BB/L	.	16B/LL	.	8B/L	.	8r	.	1r	.	1r	.	8r	.	1r	.	8ryy	.	8r	.	8r	.	8r	.
.	.	.	.	16B/	.	.	.	.	.	.	.	.	.	.	.	.	.	.	.	.	.	.	.	.	.
*	*	*	*	*	*	*tremolo	*	*tremolo	*	*	*	*	*	*	*	*	*	*	*	*	*	*	*	*	*
!	!	!	!	!	!	!	!	!	!	!	!	!	!	!	!	!	!	!LO:TX:a:t=Col Oboe	!	!LO:TX:b:i:t=Unis	!	!	!	!	!
.	.	8AA#X/	.	16A#X/	.	16a#X/L	.	16aa#X\LL	.	.	.	.	.	8A#X\L 8AA#X'\	.	.	.	8a#X/Lyy	.	8a#X/L	.	8aa#X/L	.	8aaaa#X'\L	.
.	.	.	.	16A#/	.	16a#/	.	16aa#\	.	.	.	.	.	.	.	.	.	.	.	.	.	.	.	.	.
.	.	8BB/	.	16B/	<	16b/	.	16bb\	.	.	.	.	.	8B\ 8BB'\	.	.	.	8b/yy	.	8b/	.	8bb/	.	8bbbb'\	.
.	.	.	.	16B/	.	16b/	.	16bb\	.	.	.	.	.	.	.	.	.	.	.	.	.	.	.	.	.
.	.	8C#/J	.	16c#/	.	16cc#/	.	16ccc#\	.	.	.	.	.	8c#\J 8C#'\	.	.	.	8cc#/Jyy	.	8cc#/J	.	8ccc#/J	.	8ccccc#'\J	.
.	.	.	.	16c#/JJ	.	16cc#/JJ	.	16ccc#\JJ	.	.	.	.	.	.	.	.	.	.	.	.	.	.	.	.	.
.	.	8D/L	.	16d/LL	.	16dd\LL	.	16ddd\LL	.	.	.	.	.	8d\L 8D'\	.	.	.	8dd/Lyy	.	8dd/L	.	8ddd/L	.	8ddddd'\L	<
.	.	.	.	16d/	.	16dd\	.	16ddd\	.	.	.	.	.	.	.	.	.	.	.	.	.	.	.	.	.
.	.	8AA#/	.	16A#/	.	16a#\	.	16aa#\	<	.	.	.	.	8A#\ 8AA#'\	.	.	.	8a#/yy	<	8a#/	<	8aa#/	.	8aaaa#'\	.
.	.	.	.	16A#/	.	16a#\	.	16aa#\	.	.	.	.	.	.	.	.	.	.	.	.	.	.	.	.	.
.	.	8BB/	.	16B/	.	16b\	.	16bb\	.	.	.	.	.	8B\ 8BB'\	.	.	.	8b/yy	.	8b/	.	8bb/	.	8bbbb'\	.
.	.	.	.	16B/	.	16b\	.	16bb\	.	.	.	.	.	.	.	.	.	.	.	.	.	.	.	.	.
.	.	8C#/J	.	16c#/	.	16cc#\	.	16ccc#\	.	.	.	.	.	8c#\J 8C#'\	.	.	.	8cc#/Jyy	.	8cc#/J	.	8ccc#/J	.	8ccccc#'\J	.
.	.	.	.	16c#/JJ	.	16cc#\JJ	.	16ccc#\JJ	.	.	.	.	.	.	.	.	.	.	.	.	.	.	.	.	.
=4	=4	=4	=4	=4	=4	=4	=4	=4	=4	=4	=4	=4	=4	=4	=4	=4	=4	=4	=4	=4	=4	=4	=4	=4	=4
*	*	*	*	*	*	*	*	*	*	*	*	*	*	*	*	*^	*	*	*	*	*	*	*	*	*
!	!	!	!	!	!	!	!	!	!	!	!	!	!	!	!	!	!	!	!	!	!	!	!LO:TX:a:t=8va	!	!	!
1D\TT	<[	8D/L	.	16d/LL	.	16dd\LL	.	16ddd\LL	.	8r	.	2r	.	8d\L 8D\	.	2r	2ryy	.	8dd\Lyy	.	8dd\L	.	8ddd'\Lyy	.	8ddddd'\L	.
.	.	.	.	16d/	.	16dd\	.	16ddd\	.	.	.	.	.	.	.	.	.	.	.	.	.	.	.	.	.	.
.	.	8AA#X/	.	16A#X/	.	16a#X\	.	16aa#X\	.	8A#X/L	.	.	.	8A#X\ 8AA#X\	.	.	.	.	8a#X\yy	.	8a#X\	.	8aa#X'\yy	.	8aaaa#X'\	.
.	.	.	.	16A#/	.	16a#\	.	16aa#\	.	.	.	.	.	.	.	.	.	.	.	.	.	.	.	.	.	.
.	.	8BB/	.	16B/	.	16b\	.	16bb\	.	8B/	.	.	.	8B\ 8BB\	.	.	.	.	8b\yy	.	8b\	.	8bb'\yy	.	8bbbb'\	.
.	.	.	.	16B/	.	16b\	.	16bb\	.	.	.	.	.	.	.	.	.	.	.	.	.	.	.	.	.	.
.	.	8C#/J	.	16c#/	.	16cc#\	.	16ccc#\	.	8c#/J	.	.	.	8c#\J 8C#\	.	.	.	.	8cc#\Jyy	.	8cc#\J	.	8ccc#'\Jyy	.	8ccccc#'\J	.
.	.	.	.	16c#/JJ	.	16cc#\JJ	.	16ccc#\JJ	.	.	.	.	.	.	.	.	.	.	.	.	.	.	.	.	.	.
.	.	8D/L	.	16d\LL	[	16dd\LL	.	16ddd\LL	.	8d/L	.	8r	.	8d\L 8D\	.	8r	8ryy	.	8dd\Lyy	.	8dd\L	.	8ddd'\Lyy	.	8ddddd'\L	.
.	.	.	.	16d\	.	16dd\	.	16ddd\	.	.	.	.	.	.	.	.	.	.	.	.	.	.	.	.	.	.
.	.	8C#/	.	16c#\	.	16cc#\	.	16ccc#\	.	8c#/	.	8C#\L	.	8c#\ 8C#\	.	8cc#/L	8cc#\L	.	8cc#\yy	.	8cc#\	.	8ccc#'\yy	.	8ccccc#'\	.
.	.	.	.	16c#\	.	16cc#\	.	16ccc#\	.	.	.	.	.	.	.	.	.	.	.	.	.	.	.	.	.	.
.	.	8D/	.	16d\	.	16dd\	.	16ddd\	.	8d/	.	8D\	.	8d\ 8D\	.	8dd/	8dd\	.	8dd\yy	.	8dd\	.	8ddd'\yy	.	8ddddd'\	.
.	.	.	.	16d\	.	16dd\	.	16ddd\	.	.	.	.	.	.	.	.	.	.	.	.	.	.	.	.	.	.
.	.	8E/J	.	16e\	.	16ee\	.	16eee\	.	8e/J	.	8E\J	.	8e\J 8E\	.	8ee/J	8ee\J	.	8ee\Jyy	[	8ee\J	[	8eee'\Jyy	.	8eeeee'\J	[[
.	.	.	.	16e\JJ	.	16ee\JJ	.	16eee\JJ	[[	.	.	.	.	.	.	.	.	.	.	.	.	.	.	.	.	.
*	*	*	*	*Xtremolo	*	*Xtremolo	*	*Xtremolo	*	*	*	*	*	*	*	*	*	*	*	*	*	*	*	*	*	*
*	*	*	*	*	*	*	*	*	*	*	*	*	*	*	*	*v	*v	*	*	*	*	*	*	*	*	*
=5	=5	=5	=5	=5	=5	=5	=5	=5	=5	=5	=5	=5	=5	=5	=5	=5	=5	=5	=5	=5	=5	=5	=5	=5	=5
*M2/4	*	*M2/4	*	*M2/4	*	*M2/4	*	*M2/4	*	*M2/4	*	*M2/4	*	*M2/4	*	*M2/4	*	*M2/4	*	*M2/4	*	*M2/4	*	*M2/4	*
*	*	*2\right	*	*	*	*2\right	*	*	*	*	*	*	*	*	*	*2\right	*2\right	*	*	*	*	*	*	*	*
*	*	*	*	*	*	*	*	*	*	*	*	*	*	*	*	*^	*	*	*	*	*	*	*	*	*
*	*	*	*	*	*	*	*	*	*	*	*	*	*	*	*	*	*	*	*	*	*^	*	*	*	*	*
*	*	*	*	*	*	*	*	*	*	*	*	*	*	*	*	*	*	*	*^	*	*	*	*	*	*	*	*
2r	.	2F#\	.	2f#\	.	2ff#\	.	2fff#\	.	2f#/	.	2F#\	.	2f#\ 2F#\	.	2ff#^/	2ff#\	.	2ff#^\	2ff#/	.	2ff#\	2ff#/	.	2fff#^\	.	2fffff#\	.
*	*	*	*	*	*	*	*	*	*	*	*	*	*	*	*	*	*	*	*v	*v	*	*	*	*	*	*	*	*
*	*	*	*	*	*	*	*	*	*	*	*	*	*	*	*	*	*	*	*	*	*v	*v	*	*	*	*	*
!!LO:PB:g=original
=6	=6	=6	=6	=6	=6	=6	=6	=6	=6	=6	=6	=6	=6	=6	=6	=6	=6	=6	=6	=6	=6	=6	=6	=6	=6	=6
!	!	!	!	!	!	!	!	!	!	!LO:TX:a:t=Trombe	!	!LO:TX:a:t=Trombone	!	!	!	!	!	!	!	!	!	!	!	!	!	!
.	.	(8qE#X/	.	(8qe#X/	.	(8qe#X/	.	(8qee#X/	.	.	.	.	.	(8qE#X/	.	.	.	.	8qee#X/	.	(8qee#X/	.	(8qeee#X/	.	(8qeeeee#X/	.
*	*	*	*	*	*	*	*	*	*	*^	*	*	*	*	*	*	*	*	*	*	*	*	*	*	*	*
2ryy	.	2F#^<\)	.	2f#\)	.	2f#/)	.	2ff#^\)	.	2f#/	2f#^\	.	2F#^<\	.	2F#^\)	.	2ff#^/	2ff#\	.	2ff#^\	.	2ff#^<\)	.	2fff#^<\)	.	2fffff#^<\)	.
=7	=7	=7	=7	=7	=7	=7	=7	=7	=7	=7	=7	=7	=7	=7	=7	=7	=7	=7	=7	=7	=7	=7	=7	=7	=7	=7	=7
*	*	*rep	*	*	*	*	*	*	*	*	*	*	*	*	*rep	*	*	*	*	*rep	*	*rep	*	*rep	*	*	*
.	.	(8qE#X/	.	(8qe#X/	.	(8qe#X/	.	(8qee#X/	.	.	.	.	.	.	(8qE#X/	.	.	.	.	8qee#X/	.	(8qee#X/	.	(8qeee#X/	.	(8qeeeee#X/	.
2ryy	.	2F#^<\)	.	2f#\)	.	2f#/)	.	2ff#^\)	.	2f#/	2f#^\	.	2F#^<\	.	2F#^\)	.	2ff#/	2ff#\	.	2ff#^\	.	2ff#^<\)	.	2fff#^<\)	.	2fffff#^<\)	.
*	*	*Xrep	*	*	*	*	*	*	*	*	*	*	*	*	*Xrep	*	*	*	*	*Xrep	*	*Xrep	*	*Xrep	*	*	*
=8	=8	=8	=8	=8	=8	=8	=8	=8	=8	=8	=8	=8	=8	=8	=8	=8	=8	=8	=8	=8	=8	=8	=8	=8	=8	=8	=8
*	*	*rep	*	*	*	*	*	*	*	*	*	*	*	*	*rep	*	*	*	*	*rep	*	*rep	*	*rep	*	*rep	*
.	.	(8qE#X/	.	(8qe#X/	.	(8qe#X/	.	(8qee#X/	.	.	.	.	.	.	(8qE#X/	.	.	.	.	8qee#X/	.	(8qee#X/	.	(8qeee#X/	.	(8qeeeee#X/	.
2ryy	.	2F#^<\)	.	2f#\)	.	2f#/)	.	2ff#^\)	.	2f#/	2f#^\	.	2F#^<\	.	2F#^\)	.	2ff#/	2ff#\	.	2ff#^\	.	2ff#^<\)	.	2fff#^<\)	.	2fffff#^<\)	.
*	*	*Xrep	*	*	*	*	*	*	*	*	*	*	*	*	*Xrep	*	*	*	*	*Xrep	*	*Xrep	*	*Xrep	*	*Xrep	*
*	*	*	*	*	*	*	*	*	*	*v	*v	*	*	*	*	*	*v	*v	*	*	*	*	*	*	*	*	*
=9	=9	=9	=9	=9	=9	=9	=9	=9	=9	=9	=9	=9	=9	=9	=9	=9	=9	=9	=9	=9	=9	=9	=9	=9	=9
!	!	!	!	!	!	!	!	!	!	!	!	!	!	!	!	!	!	!	!	!	!	!LO:TX:t=Col 1o.	!	!	!
!	!	!	!	!	!	!	!	!	!	!	!	!	!	!	!	!	!	!	!	!	!	!LO:TX:t=P:problem=ukrycie przednutek powoduje problemy z wyświetlaniem	!	!	!
.	.	(8qE#X/	.	8qe#X/	.	8qe#X/	.	(8qee#X/	.	.	.	.	.	8qE#X/	.	.	.	(<8qee#X/ 8qe#X/	.	(8qee#X/	.	(y8qee#X/	.	(8qeeee#X/	.
2ryy	.	4F#\)	.	4f#\	.	4f#/	.	4ff#\)	.	2r	.	2r	.	4F#\	.	4ff#/ 4f#/	.	4ff#/ 4f#/)	.	4ff#\)	.	4ff#/)yy	.	4ffff#\)	.
.	.	(8qE#/	.	8qe#/	.	8qe#/	.	(8qee#/	.	.	.	.	.	8qE#/	.	.	.	(8qee#/ 8qe#/	.	(8qee#/	.	(y8qee#/	.	(8qeeee#/	.
.	.	4F#\)	.	4f#\	.	4f#/	.	4ff#\)	.	.	.	.	.	4F#\	.	4ff#/ 4f#/	.	4ff#/ 4f#/)	.	4ff#\)	.	4ff#/)yy	.	4ffff#\)	.
=10	=10	=10	=10	=10	=10	=10	=10	=10	=10	=10	=10	=10	=10	=10	=10	=10	=10	=10	=10	=10	=10	=10	=10	=10	=10
*	*	*rep	*	*rep	*	*rep	*	*rep	*	*	*	*	*	*rep	*	*rep	*	*rep	*	*rep	*	*repy	*	*rep	*
.	.	(8qE#X/	.	8qe#X/	.	8qe#X/	.	(8qee#X/	.	.	.	.	.	8qE#X/	.	.	.	(8qee#X/ 8qe#X/	.	(8qee#X/	.	(y8qee#X/	.	(8qeeee#X/	.
2ryy	.	4F#\)	.	4f#\	.	4f#/	.	4ff#\)	.	2r	.	2r	.	4F#\	.	4ff#/ 4f#/	.	4ff#/ 4f#/)	.	4ff#\)	.	4ff#/)yy	.	4ffff#\)	.
.	.	(8qE#/	.	8qe#/	.	8qe#/	.	(8qee#/	.	.	.	.	.	8qE#/	.	.	.	(8qee#/ 8qe#/	.	(8qee#/	.	(y8qee#/	.	(8qeeee#/	.
.	.	4F#\)	.	4f#\	.	4f#/	.	4ff#\)	.	.	.	.	.	4F#\	.	4ff#/ 4f#/	.	4ff#/ 4f#/)	.	4ff#\)	.	4ff#/)yy	.	4ffff#\)	.
*	*	*Xrep	*	*Xrep	*	*Xrep	*	*Xrep	*	*	*	*	*	*Xrep	*	*Xrep	*	*Xrep	*	*Xrep	*	*Xrep	*	*Xrep	*
=11	=11	=11	=11	=11	=11	=11	=11	=11	=11	=11	=11	=11	=11	=11	=11	=11	=11	=11	=11	=11	=11	=11	=11	=11	=11
.	.	.	.	.	.	(8qe#X/	.	(8qee#X/	.	.	.	.	.	.	.	.	.	.	.	.	.	(y8qee#X/	.	(8qeeee#X/	.
2ryy	.	2r	.	2r	.	8f#/L)	.	8ff#\L)	.	2r	.	2r	.	2r	.	2r	.	2r	.	2r	.	8ff#/L)yy	.	8ffff#\L)	.
.	.	.	.	.	.	(8qe#/	.	(8qee#/	.	.	.	.	.	.	.	.	.	.	.	.	.	(y8qee#/	.	(8qeeee#/	.
.	.	.	.	.	.	8f#/)	.	8ff#\)	.	.	.	.	.	.	.	.	.	.	.	.	.	8ff#/)yy	.	8ffff#\)	.
.	.	.	.	.	.	(8qe#/	.	(8qee#/	.	.	.	.	.	.	.	.	.	.	.	.	.	(y8qee#/	.	(8qeeee#/	.
.	.	.	.	.	.	8f#/)	.	8ff#\)	.	.	.	.	.	.	.	.	.	.	.	.	.	8ff#/)yy	.	8ffff#\)	.
.	.	.	.	.	.	(8qe#/	.	(8qee#/	.	.	.	.	.	.	.	.	.	.	.	.	.	(y8qee#/	.	(8qeeee#/	.
.	.	.	.	.	.	8f#/J)	.	8ff#\J)	.	.	.	.	.	.	.	.	.	.	.	.	.	8ff#/J)yy	.	8ffff#\J)	.
=12	=12	=12	=12	=12	=12	=12	=12	=12	=12	=12	=12	=12	=12	=12	=12	=12	=12	=12	=12	=12	=12	=12	=12	=12	=12
*	*	*	*	*	*	*rep	*	*rep	*	*	*	*	*	*	*	*	*	*	*	*	*	*repy	*	*	*
.	.	.	.	.	.	(8qe#X/	.	(8qee#X/	.	.	.	.	.	.	.	.	.	.	.	.	.	(y8qee#X/	.	(8qeeee#X/	.
2r	.	2r	.	2r	.	8f#/L)	.	8ff#\L)	.	2r	.	2r	.	2r	.	2r	.	2r	.	2r	.	8ff#/L)yy	.	8ffff#\L)	.
.	.	.	.	.	.	(8qe#/	.	(8qee#/	.	.	.	.	.	.	.	.	.	.	.	.	.	(y8qee#/	.	(8qeeee#/	.
.	.	.	.	.	.	8f#/)	.	8ff#\)	.	.	.	.	.	.	.	.	.	.	.	.	.	8ff#/)yy	.	8ffff#\)	.
.	.	.	.	.	.	(8qe#/	.	(8qee#/	.	.	.	.	.	.	.	.	.	.	.	.	.	(y8qee#/	.	(8qeeee#/	.
.	.	.	.	.	.	8f#/)	.	8ff#\)	.	.	.	.	.	.	.	.	.	.	.	.	.	8ff#/)yy	.	8ffff#\)	.
.	.	.	.	.	.	(8qe#/	.	(8qee#/	.	.	.	.	.	.	.	.	.	.	.	.	.	(y8qee#/	.	(8qeeee#/	.
.	.	.	.	.	.	8f#/J)	.	8ff#\J)	.	.	.	.	.	.	.	.	.	.	.	.	.	8ff#/J)yy	.	8ffff#\J)	.
*	*	*	*	*	*	*Xrep	*	*Xrep	*	*	*	*	*	*	*	*	*	*	*	*	*	*Xrep	*	*	*
!!LO:PB:g=original
=13||	=13||	=13||	=13||	=13||	=13||	=13||	=13||	=13||	=13||	=13||	=13||	=13||	=13||	=13||	=13||	=13||	=13||	=13||	=13||	=13||	=13||	=13||	=13||	=13||	=13||
*M2/4	*	*M2/4	*	*M2/4	*	*M2/4	*	*M2/4	*	*M2/4	*	*M2/4	*	*M2/4	*	*M2/4	*	*M2/4	*	*M2/4	*	*M2/4	*	*M2/4	*
.	.	.	.	.	.	.	.	(16qqff#/LL	f	.	.	.	.	.	.	.	.	.	.	.	.	.	.	(16qqffff#/LL	.
.	.	.	.	.	.	.	.	16qqgg#X/	.	.	.	.	.	.	.	.	.	.	.	.	.	.	.	16qqgggg#X/	.
!	!	!	!	!	!	!	!	!	!	!	!	!LO:TX:a:t=P:problem=W źródle zamiana kolejności głosów&colon; najpierw trombe potem trombone	!	!	!	!	!	!	!	!	!	!	!	!LO:TX:t=[segno]	!
!	!	!	!	!	!	!	!	!	!	!LO:TX:a:t=W źródle zamiana kolejności głosów&colon; najpierw trombe potem trombone	!	!LO:TX:a:i:t=Col b&colon;	!	!	!	!	!	!	!	!	!	!	!	!LO:TX:a:t=A.	!
.	.	.	.	.	.	.	.	16qqaa#X/JJ)	.	.	.	.	.	.	.	.	.	.	.	.	.	.	.	16qqaaaa#X/JJ	.
!	!	!	!	!	!	!	!	!	!	!	!LO:DY:a:rj	!	!	!	!	!	!LO:DY:rj	!	!LO:DY:a:rj	!	!LO:DY:a:rj	!	!	!	!
4D/	.	4BB/	.	4f#\ 4B\	.	4b/ 4d^/	.	4bb^<\	.	4f#/ 4d^>/	f	4BB/yy	.	4B\ 4BB^<\	.	4ff#\' 4dd'^<\	f	4bb\ 4dd^<\	f	4bb\ 4dd^<\	f	4ddd\	.	4bbbb^<\)	.
4D/	.	4B\	.	4f#\ 4B\	.	4b/ 4d^/	.	4ff#\ 4b'^<\	.	4f#/ 4d^>/	.	4B\yy	.	4B\ 4BB^<\	.	4ff#\' 4dd'^<\	.	4ff#\ 4dd^<T\	.	4ff#\ 4dd^<T\	.	4dddT\	.	4ffff#^<t\	.
=14	=14	=14	=14	=14	=14	=14	=14	=14	=14	=14	=14	=14	=14	=14	=14	=14	=14	=14	=14	=14	=14	=14	=14	=14	=14
4r	.	8E\L	.	8g\L 8B\	.	8b/L 8e/	.	8gg\L 8b'\	.	8g/L 8e/	.	8E\Lyy	.	8B\L 8E\	.	8gg\L 8ee'\	.	8gg\L 8ee'\	.	8gg\L 8ee'\	.	8eee'\L	.	8gggg'\L	.
.	.	8E\J	.	8g\J 8B\	.	8b/J 8e/	.	8gg\J 8b'\	.	8g/J 8e/	.	8E\Jyy	.	8B\J 8E\	.	8gg\J 8ee'\	.	8gg\J 8ee'\	.	8gg\J 8ee'\	.	8eee'\J	.	8gggg'\J	.
*	*	*	*	*	*	*	*	*	*	*	*	*	*	*^	*	*	*	*	*	*	*	*	*	*	*
4D/	.	4BB/	.	4f#\ 4B\	.	4b/ 4d/	.	4ff#\ 4b'^<\	.	4f#/ 4d^>/	.	4BB/yy	.	4B\	4BB^\	.	4ff#\' 4dd'^<\	.	4ff#\ 4ddT^<\	.	4ff#\ 4ddT\	.	4dddT\	.	4ffff#^<t\	.
*	*	*	*	*	*	*	*	*	*	*	*	*	*	*v	*v	*	*	*	*	*	*	*	*	*	*	*
=15	=15	=15	=15	=15	=15	=15	=15	=15	=15	=15	=15	=15	=15	=15	=15	=15	=15	=15	=15	=15	=15	=15	=15	=15	=15
*	*	*	*	*	*	*	*	*	*	*	*	*	*	*	*	*	*	*^	*	*	*	*	*	*	*
*	*	*	*	*tremolo	*	*tremolo	*	*tremolo	*	*	*	*	*	*	*	*	*	*	*	*	*	*	*	*	*	*
2r	.	4F#\	.	8f#\L 8A#X\	.	8cc#/L 8e/	.	16ee'\LL	.	8e'/L	.	4F#\yy	.	4F#\	.	4ff#\ 4cc#\	.	8ee'/L	2r	.	4ee\ 4cc#\	.	2r	.	8eeee'\L	.
.	.	.	.	.	.	.	.	16ee'\	.	.	.	.	.	.	.	.	.	.	.	.	.	.	.	.	.	.
.	.	.	.	8f#\ 8A#\	.	8cc#/ 8e/	.	16dd'\	.	8d'/	.	.	.	.	.	.	.	8dd'/	.	.	.	.	.	.	8dddd'\	.
.	.	.	.	.	.	.	.	16dd'\	.	.	.	.	.	.	.	.	.	.	.	.	.	.	.	.	.	.
.	.	4AA#X/	.	8f#\ 8A#\	.	8cc#/ 8e/	.	16cc#'\	.	8c#'/	.	4AA#X/yy	.	4A#X/ 4AA#X/	.	4ff#\ 4cc#\	.	8cc#'/	.	.	4ee\ 4cc#\	.	.	.	8cccc#'\	.
.	.	.	.	.	.	.	.	16cc#'\	.	.	.	.	.	.	.	.	.	.	.	.	.	.	.	.	.	.
.	.	.	.	8f#\J 8A#\	.	8cc#/J 8e/	.	16ff#'\	.	8f#'/J	.	.	.	.	.	.	.	8ff#'/J	.	.	.	.	.	.	8ffff#'\J	.
.	.	.	.	.	.	.	.	16ff#'\JJ	.	.	.	.	.	.	.	.	.	.	.	.	.	.	.	.	.	.
*	*	*	*	*Xtremolo	*	*Xtremolo	*	*Xtremolo	*	*	*	*	*	*	*	*	*	*	*	*	*	*	*	*	*	*
=16	=16	=16	=16	=16	=16	=16	=16	=16	=16	=16	=16	=16	=16	=16	=16	=16	=16	=16	=16	=16	=16	=16	=16	=16	=16	=16
2r	.	8BB/L	.	8f#\L 8B\	.	8b/L 8d/	.	(16dd\LL	.	8d'/L	.	8BB/Lyy	.	8B\L 8BB\	.	8ff#\L 8dd\	.	(16dd/LL	2r	.	8dd\L 8b\	.	2r	.	(16dddd\LL	.
.	.	.	.	.	.	.	.	16ee\	.	.	.	.	.	.	.	.	.	16ee/	.	.	.	.	.	.	16eeee\	.
.	.	8FF#/J	.	8f#\J 8A#X\	.	8e/J 8c#/	.	16cc#\	.	8c#'/J	.	8FF#/Jyy	.	8F#\J 8FF#\	.	8ff#\J 8ee\	.	16cc#/	.	.	8cc#\J 8a#X\	.	.	.	16cccc#\	.
.	.	.	.	.	.	.	.	16dd\JJ)	.	.	.	.	.	.	.	.	.	16dd/JJ	.	.	.	.	.	.	16dddd\JJ	.
.	.	4BB/	.	4f#\ 4B\	.	4d/ 4B/	.	4b\	.	4d'/	.	4BB/yy	.	4B\ 4BB\	.	4ff#\ 4dd\	.	4b/)	.	.	4dd\ 4b\	.	.	.	4bbb\)	.
=17	=17	=17	=17	=17	=17	=17	=17	=17	=17	=17	=17	=17	=17	=17	=17	=17	=17	=17	=17	=17	=17	=17	=17	=17	=17	=17
.	.	.	.	.	.	.	.	.	.	.	.	.	.	.	.	.	.	16qqff#/LL	.	.	.	.	.	.	(16qqffff#/LL	.
.	.	.	.	.	.	.	.	.	.	.	.	.	.	.	.	.	.	16qqgg#X/	.	.	.	.	.	.	16qqgggg#X/	.
!	!	!	!	!	!	!	!	!	!	!	!	!	!	!	!	!	!	!	!	!	!	!	!	!	!LO:TX:a:t=B.	!
.	.	.	.	.	.	.	.	.	.	.	.	.	.	.	.	.	.	16qqaa#X/JJ	.	.	.	.	.	.	16qqaaaa#X/JJ	.
*	*	*	*	*	*	*	*	*	*	*	*	*	*	*	*	*^	*	*	*	*	*	*	*	*	*	*
4D/	.	4BB/	.	4f#\ 4B\	.	4b/ 4d/	.	4bb\ 4b^<\ 4d\	.	4f#/ 4d^>/	.	4BB/yy	.	4B\ 4BB^<\	.	4ff#^</	4dd\	.	4bb/	4dd\	.	4bb\ 4dd\	.	4ddd\	.	4bbbb\)	.
4D/	.	4B\	.	4f#\ 4B\	.	4b/ 4d/	.	4ff#\ 4b^<\	.	4f#/ 4d^>/	.	4B\yy	.	4B\ 4BB^<\	.	4ff#^</	4dd\	.	4ff#t/	4dd\	.	4ff#\ 4ddT\	.	4ddd^<T\	.	4ffff#t^<\	.
*	*	*	*	*	*	*	*	*	*	*	*	*	*	*	*	*v	*v	*	*	*	*	*	*	*	*	*	*
*	*	*	*	*	*	*	*	*	*	*	*	*	*	*	*	*	*	*v	*v	*	*	*	*	*	*	*
=18	=18	=18	=18	=18	=18	=18	=18	=18	=18	=18	=18	=18	=18	=18	=18	=18	=18	=18	=18	=18	=18	=18	=18	=18	=18
4r	.	8E\L	.	8g\L 8B\	.	8b/L 8e/	.	8gg\L 8b'\	.	8g/L 8e/	.	8E\Lyy	.	8B\L 8E\	.	8gg\L 8ee\	.	8gg\L 8ee'\	.	8gg\L 8ee\	.	8eee'\L	.	8gggg'\L	.
.	.	8E\J	.	8g\J 8B\	.	8b/J 8e/	.	8gg\J 8b'\	.	8g/J 8e/	.	8E\Jyy	.	8B\J 8E\	.	8gg\J 8ee\	.	8gg\J 8ee'\	.	8gg\J 8ee\	.	8eee'\J	.	8gggg'\J	.
*	*	*	*	*	*	*	*	*	*	*	*	*	*	*	*	*^	*	*	*	*	*	*	*	*	*
4D/	.	4BB/	.	4f#\ 4B\	.	4b/ 4d/	.	4ff#\ 4b'^<\	.	4f#/ 4d^>/	.	4BB/yy	.	4B\^< 4BB\	.	4ff#/	4dd\	.	4ff#\ 4ddT\	.	4ff#\ 4ddT\	.	4ddd^<T\	.	4ffff#t^<\	.
*	*	*	*	*	*	*	*	*	*	*	*	*	*	*	*	*v	*v	*	*	*	*	*	*	*	*	*
=19	=19	=19	=19	=19	=19	=19	=19	=19	=19	=19	=19	=19	=19	=19	=19	=19	=19	=19	=19	=19	=19	=19	=19	=19	=19
*	*	*	*	*	*	*	*	*	*	*^	*	*	*	*^	*	*	*	*^	*	*	*	*	*	*	*
*2\right	*	*	*	*	*	*	*	*tremolo	*	*	*	*	*	*	*	*	*	*	*	*	*	*	*	*	*	*	*	*
2AAT\	.	4AA/	.	8r	.	8r	.	16aa\LL	.	8a/L	2A\	.	4AA/yy	.	2A^<\	2AA\	.	2ee/ 2a^/	.	8aa/L	2cc#^\	.	2gg\ 2ee\	.	2ccc#^<\	.	8aaaa'\L	.
.	.	.	.	.	.	.	.	16aa\	.	.	.	.	.	.	.	.	.	.	.	.	.	.	.	.	.	.	.	.
.	.	.	.	8g\L 8A\	.	8cc#/L 8e/	.	16gg\	.	8g/	.	.	.	.	.	.	.	.	.	8gg/	.	.	.	.	.	.	8gggg'\	.
.	.	.	.	.	.	.	.	16gg\	.	.	.	.	.	.	.	.	.	.	.	.	.	.	.	.	.	.	.	.
.	.	4AA/	.	8g\ 8A\	.	8cc#/ 8e/	.	16ff#\	.	8f#/	.	.	4AA/yy	.	.	.	.	.	.	8ff#/	.	.	.	.	.	.	8ffff#'\	.
.	.	.	.	.	.	.	.	16ff#\	.	.	.	.	.	.	.	.	.	.	.	.	.	.	.	.	.	.	.	.
.	.	.	.	8g\J 8A\	.	8cc#/J 8e/	.	16ee\	.	8e/J	.	.	.	.	.	.	.	.	.	8ee/J	.	.	.	.	.	.	8eeee'\J	.
.	.	.	.	.	.	.	.	16ee\JJ	.	.	.	.	.	.	.	.	.	.	.	.	.	.	.	.	.	.	.	.
*	*	*	*	*	*	*	*	*Xtremolo	*	*	*	*	*	*	*	*	*	*	*	*	*	*	*	*	*	*	*	*
*	*	*	*	*	*	*	*	*	*	*	*	*	*	*	*v	*v	*	*	*	*	*	*	*	*	*	*	*	*
=20	=20	=20	=20	=20	=20	=20	=20	=20	=20	=20	=20	=20	=20	=20	=20	=20	=20	=20	=20	=20	=20	=20	=20	=20	=20	=20	=20
8D/	.	8D/L	.	8f#\L 8A\	.	8dd/L 8f#/	.	16ff#\LL	.	8f#/L	8d\L	.	8D/Lyy	.	8A\L 8D\	.	8ff#\L 8dd\	.	16ff#/LL	8dd\L	.	8ff#\L 8dd\	.	8ddd\L	.	16ffff#'\LL	.
.	.	.	.	.	.	.	.	16gg\	.	.	.	.	.	.	.	.	.	.	16gg/	.	.	.	.	.	.	16gggg\	.
*	*	*	*	*	*	*	*	*	*	*	*	*	*	*	*	*	*	*	*	*	*	*tremolo	*	*	*	*	*
8AA\	.	8AA/J	.	8g\J 8A\	.	8cc#/J 8e/	.	16ee\	.	8e/J	8c#\J	.	8AA/Jyy	.	8A\J 8AA\	.	8ee\J 8a\	.	16ee/	8cc#\J	.	16gg\L 16ee\	.	8ccc#\J	.	16eeee\	.
.	.	.	.	.	.	.	.	16ff#\JJ	.	.	.	.	.	.	.	.	.	.	16ff#/JJ	.	.	16gg\JJ 16ee\	.	.	.	16ffff#\JJ	.
*	*	*	*	*	*	*	*	*	*	*	*	*	*	*	*	*	*	*	*	*	*	*Xtremolo	*	*	*	*	*
4D/	.	4D/	.	4f#\ 4A\	.	4dd/ 4f#/	.	4dd\	.	4f#/	4d\	.	4D\yy	.	4A\ 4D\	.	4dd/ 4f#/	.	4dd/	4dd\	.	4ff#\ 4dd\	.	4ddd\	.	4dddd\	.
*	*	*	*	*	*	*	*	*	*	*	*	*	*	*	*	*	*	*	*v	*v	*	*	*	*	*	*	*
!!LO:PB:g=original
=21:|!	=21:|!	=21:|!	=21:|!	=21:|!	=21:|!	=21:|!	=21:|!	=21:|!	=21:|!	=21:|!	=21:|!	=21:|!	=21:|!	=21:|!	=21:|!	=21:|!	=21:|!	=21:|!	=21:|!	=21:|!	=21:|!	=21:|!	=21:|!	=21:|!	=21:|!	=21:|!
*>B	*	*>B	*	*>B	*	*>B	*	*>B	*	*>B	*>B	*	*>B	*	*>B	*	*>B	*	*>B	*	*>B	*	*>B	*	*>B	*
!	!	!	!	!	!	!	!	!	!	!	!	!	!	!	!	!	!	!	!	!	!	!	!LO:TX:a:t=Col Vo 2o 8va	!	!LO:TX:a:t=Col Vo. Io. 8va	!
2r	.	4.FF#/	.	16f#\LL	.	(16a#X\LL	.	(16cc#\LL	p	4r	4ryy	.	4r	.	(16c#\LL 16A#X\	p	2ff#/ 2f#/	.	(16cc#\LL 16a#X\	p	4r	.	(16aa#X\LL	.	(16ccccc#\LL	p
.	.	.	.	16f#\	.	16b\	.	16dd\	.	.	.	.	.	.	16d\ 16B\	.	.	.	16dd\ 16b\	.	.	.	16bb\	.	16ddddd\	.
.	.	.	.	16f#\	.	16a#\	.	16cc#\	.	.	.	.	.	.	16c#\ 16A#\	.	.	.	16cc#\ 16a#\	.	.	.	16aa#\	.	16ccccc#\	.
.	.	.	.	16f#\JJ	.	16b\JJ	.	16dd\JJ	.	.	.	.	.	.	16d\JJ 16B\	.	.	.	16dd\JJ 16b\	.	.	.	16bb\JJ	.	16ddddd\JJ	.
.	.	.	.	(16f#\LL	.	8a#/L)	.	8cc#\L)	.	8r	8ryy	.	8r	.	8c#\ 8A#\)	.	.	.	8cc#\ 8a#\)	.	8r	.	8aa#/L)	.	8ccccc#\L)	.
.	.	.	.	16e#X\)	.	.	.	.	.	.	.	.	.	.	.	.	.	.	.	.	.	.	.	.	.	.
.	.	8r	.	16f#'\	.	8f#^/J	.	8ff#'\J	sfz	8f#/	8f#\	.	8F#\	.	8r	.	.	.	8r	.	8ff#\ 8f#^\	.	8ff#^/J	.	8fffff#'\J	sfz
.	.	.	.	16f#'\JJ	.	.	.	.	.	.	.	.	.	.	.	.	.	.	.	.	.	.	.	.	.	.
=22	=22	=22	=22	=22	=22	=22	=22	=22	=22	=22	=22	=22	=22	=22	=22	=22	=22	=22	=22	=22	=22	=22	=22	=22	=22	=22
2DT/	.	4.F#\	.	16f#\LL	.	(16b/LL	.	(16dd\LL	.	4r	4.ryy	.	4r	.	(16d\LL 16B\	.	2ff#/ 2f#/	.	(16dd\LL 16b\	.	4r	.	(16bb/LL	.	(16ddddd\LL	.
.	.	.	.	16f#\	.	16cc#/	.	16ee\	.	.	.	.	.	.	16e\ 16c#\	.	.	.	16ee\ 16cc#\	.	.	.	16ccc#/	.	16eeeee\	.
.	.	.	.	16f#\	.	16b/	.	16dd\	.	.	.	.	.	.	16d\ 16B\	.	.	.	16dd\ 16b\	.	.	.	16bb/	.	16ddddd\	.
.	.	.	.	16f#\JJ	.	16cc#/JJ	.	16ee\JJ	.	.	.	.	.	.	16e\JJ 16c#\	.	.	.	16ee\JJ 16cc#\	.	.	.	16ccc#/JJ	.	16eeeee\JJ	.
.	.	.	.	(16f#\LL	.	8b/L)	.	8dd\L)	.	8r	.	.	8r	.	8d\ 8B\)	.	.	.	8dd\ 8b\)	.	8r	.	8bb/L)	.	8ddddd\L)	.
.	.	.	.	16e#X\)	.	.	.	.	.	.	.	.	.	.	.	.	.	.	.	.	.	.	.	.	.	.
.	.	8r	.	16f#'\	.	8f#^/J	.	8ff#'^\J	.	8f#/	8f#\	.	8F#\	.	8r	.	.	.	8r	.	8ff#\ 8f#^\	.	8ff#^/J	.	8fffff#'^\J	.
.	.	.	.	16f#'\JJ	.	.	.	.	.	.	.	.	.	.	.	.	.	.	.	.	.	.	.	.	.	.
=23	=23	=23	=23	=23	=23	=23	=23	=23	=23	=23	=23	=23	=23	=23	=23	=23	=23	=23	=23	=23	=23	=23	=23	=23	=23	=23
2r	.	4.FF#/	.	16f#\LL	.	(16a#X/LL	.	(16cc#\LL	.	4r	4.ryy	.	4r	.	(16c#\LL 16A#X\	.	2ff#/ 2f#/	.	(16cc#\LL 16a#X\	.	4r	.	(16aa#X/LL	.	(16ccccc#\LL	.
.	.	.	.	16f#\	.	16b/	.	16dd\	.	.	.	.	.	.	16d\ 16B\	.	.	.	16dd\ 16b\	.	.	.	16bb/	.	16ddddd\	.
.	.	.	.	16f#\	.	16a#/	.	16cc#\	.	.	.	.	.	.	16c#\ 16A#\	.	.	.	16cc#\ 16a#\	.	.	.	16aa#/	.	16ccccc#\	.
.	.	.	.	16f#\JJ	.	16b/JJ	.	16dd\JJ	.	.	.	.	.	.	16d\JJ 16B\	.	.	.	16dd\JJ 16b\	.	.	.	16bb/JJ	.	16ddddd\JJ	.
.	.	.	.	(16f#\LL	.	8a#/L)	.	8cc#\L)	.	8r	.	.	8r	.	8c#\ 8A#\)	.	.	.	8cc#\L 8a#\)	.	8r	.	8aa#/L)	.	8ccccc#\L)	.
.	.	.	.	16e#X\)	.	.	.	.	.	.	.	.	.	.	.	.	.	.	.	.	.	.	.	.	.	.
.	.	8r	.	16f#'\	.	8f#^/J	.	8ff#'^\J	.	8f#/	8f#\	.	8F#\	.	8f#\ 8F#\	.	.	.	8ff#\J 8f#'\	.	8ff#\ 8f#^\	.	8ff#^/J	.	8fffff#'^\J	.
.	.	.	.	16f#'\JJ	.	.	.	.	.	.	.	.	.	.	.	.	.	.	.	.	.	.	.	.	.	.
=24	=24	=24	=24	=24	=24	=24	=24	=24	=24	=24	=24	=24	=24	=24	=24	=24	=24	=24	=24	=24	=24	=24	=24	=24	=24	=24
8D/	.	4.F#\	.	16f#\LL	.	16b\LL	.	16dd\LL	.	8d/L	8B\L	.	8F#\L	.	8d\L 8B\	f	8ff#/L 8f#/	f	8dd\L 8b\	.	8dd\L 8b'\	f	16bb\LL	.	16ddddd\LL	.
.	.	.	.	16f#\	.	16b\	.	16dd\	.	.	.	.	.	.	.	.	.	.	.	.	.	.	16bb\	.	16ddddd\	.
8r	.	.	.	16f#\	.	16cc#\	.	16ee\	.	8e/J	8c#\J	.	8F#\J	.	8e\J 8c#\	.	8ff#/J 8f#/	.	8ee\J 8cc#\	.	8ee\J 8cc#'\	.	16ccc#\	.	16eeeee\	.
.	.	.	.	16f#\JJ	.	16cc#\JJ	.	16ee\JJ	.	.	.	.	.	.	.	.	.	.	.	.	.	.	16ccc#\JJ	.	16eeeee\JJ	.
4DT/	.	.	.	(16f#\LL	.	4dd\	.	4ff#\	.	4f#/	4d\	.	4F#\	.	4f#\ 4d\	.	4ff#/ 4f#/	.	4ff#\ 4ddT\	.	4ff#\ 4ddT\	.	4ddd\	.	4fffff#\	.
.	.	.	.	16e#X\)	.	.	.	.	.	.	.	.	.	.	.	.	.	.	.	.	.	.	.	.	.	.
.	.	8r	.	16f#'\	.	.	.	.	.	.	.	.	.	.	.	.	.	.	.	.	.	.	.	.	.	.
.	.	.	.	16f#'\JJ	.	.	.	.	.	.	.	.	.	.	.	.	.	.	.	.	.	.	.	.	.	.
=25	=25	=25	=25	=25	=25	=25	=25	=25	=25	=25	=25	=25	=25	=25	=25	=25	=25	=25	=25	=25	=25	=25	=25	=25	=25	=25
2r	.	4.FF#/	.	16f#\LL	.	(16a#X/LL	.	(16cc#\LL	.	4r	4.ryy	.	4r	.	(16c#\LL 16A#X\	.	2ff#/ 2f#/	.	(16cc#\LL 16a#X\	p	4r	.	(16aa#X/LL	.	(16ccccc#\LL	.
.	.	.	.	16f#\	.	16b/	.	16dd\	.	.	.	.	.	.	16d\ 16B\	.	.	.	16dd\ 16b\	.	.	.	16bb/	.	16ddddd\	.
.	.	.	.	16f#\	.	16a#/	.	16cc#\	.	.	.	.	.	.	16c#\ 16A#\	.	.	.	16cc#\ 16a#\	.	.	.	16aa#/	.	16ccccc#\	.
.	.	.	.	16f#\JJ	.	16b/JJ	.	16dd\JJ	.	.	.	.	.	.	16d\JJ 16B\	.	.	.	16dd\JJ 16b\	.	.	.	16bb/JJ	.	16ddddd\JJ	.
.	.	.	.	(16f#\LL	.	8a#/L)	.	8cc#\L)	.	8r	.	.	8r	.	8c#\ 8A#\)	.	.	.	8cc#\ 8a#\)	.	8r	.	8aa#/L)	.	8ccccc#\L)	.
.	.	.	.	16e#X\)	.	.	.	.	.	.	.	.	.	.	.	.	.	.	.	.	.	.	.	.	.	.
.	.	8r	.	16f#'\	.	8f#^/J	.	8ff#'^\J	.	8f#/	8f#\	.	8F#\	.	8r	.	.	.	8r	.	8ff#\ 8f#^\	.	8ff#^/J	.	8fffff#'^\J	.
.	.	.	.	16f#'\JJ	.	.	.	.	.	.	.	.	.	.	.	.	.	.	.	.	.	.	.	.	.	.
=26	=26	=26	=26	=26	=26	=26	=26	=26	=26	=26	=26	=26	=26	=26	=26	=26	=26	=26	=26	=26	=26	=26	=26	=26	=26	=26
2DT/	.	4.F#\	.	16f#\LL	.	(16b/LL	.	(16dd\LL	.	4r	4.ryy	.	4r	.	(16d\LL 16B\	.	2ff#/ 2f#/	.	(16dd\LL 16b\	.	4r	.	(16bb/LL	.	(16ddddd\LL	.
.	.	.	.	16f#\	.	16cc#/	.	16ee\	.	.	.	.	.	.	16e\ 16c#\	.	.	.	16ee\ 16cc#\	.	.	.	16ccc#/	.	16eeeee\	.
.	.	.	.	16f#\	.	16b/	.	16dd\	.	.	.	.	.	.	16d\ 16B\	.	.	.	16dd\ 16b\	.	.	.	16bb/	.	16ddddd\	.
.	.	.	.	16f#\JJ	.	16cc#/JJ	.	16ee\JJ	.	.	.	.	.	.	16e\JJ 16c#\	.	.	.	16ee\JJ 16cc#\	.	.	.	16ccc#/JJ	.	16eeeee\JJ	.
.	.	.	.	(16f#\LL	.	8b/L)	.	8dd\L)	.	8r	.	.	8r	.	8d\L 8B\)	.	.	.	8dd\ 8b\)	.	8r	.	8bb/L)	.	8ddddd\L)	.
.	.	.	.	16e#X\)	.	.	.	.	.	.	.	.	.	.	.	.	.	.	.	.	.	.	.	.	.	.
.	.	8r	.	16f#'\	.	8f#^/J	.	8ff#'^\J	.	8f#/	8f#\	.	8F#\	.	8f#\J 8F#\	.	.	.	8r	.	8ff#\ 8f#^\	.	8ff#^/J	.	8fffff#'^\J	.
.	.	.	.	16f#'\JJ	.	.	.	.	.	.	.	.	.	.	.	.	.	.	.	.	.	.	.	.	.	.
=27	=27	=27	=27	=27	=27	=27	=27	=27	=27	=27	=27	=27	=27	=27	=27	=27	=27	=27	=27	=27	=27	=27	=27	=27	=27	=27
2r	.	4G\	.	16f#\LL	.	16g/LL	.	16gg\LL	.	4g#X/	2r	.	4G\	.	4g\ 4G\	f	4gg/ 4g/	.	4gg\ 4g\	f	4gg\ 4g\	f	16gg/LL	.	16ggggg\LL	.
.	.	.	.	16f#\	.	16g/	.	16gg\	.	.	.	.	.	.	.	.	.	.	.	.	.	.	16gg/	.	16ggggg\	.
.	.	.	.	16f#\	.	16g/	.	16gg\	.	.	.	.	.	.	.	.	.	.	.	.	.	.	16gg/	.	16ggggg\	.
.	.	.	.	16f#\JJ	.	16g/JJ	.	16gg\JJ	.	.	.	.	.	.	.	.	.	.	.	.	.	.	16gg/JJ	.	16ggggg\JJ	.
.	.	8D\L	.	16d\LL	.	16d/LL	.	16dd\LL	.	8d/L	.	.	8D\L	.	8d\L 8D'\	.	4r	.	8dd/L 8d/	.	8dd/L 8d'/	.	16dd/LL	.	16ddddd\LL	.
.	.	.	.	16d\	.	16d/	.	16dd\	.	.	.	.	.	.	.	.	.	.	.	.	.	.	16dd/	.	16ddddd\	.
.	.	8E\J	.	16e\	.	16e/	.	16ee\	.	8e/J	.	.	8E\J	.	8e\J 8E'\	.	.	.	8ee/J 8e/	.	8ee/J 8e'/	.	16ee/	.	16eeeee\	.
.	.	.	.	16e\JJ	.	16e/JJ	.	16ee\JJ	.	.	.	.	.	.	.	.	.	.	.	.	.	.	16ee/JJ	.	16eeeee\JJ	.
=28	=28	=28	=28	=28	=28	=28	=28	=28	=28	=28	=28	=28	=28	=28	=28	=28	=28	=28	=28	=28	=28	=28	=28	=28	=28	=28
2r	.	8F#\	.	8f#\	.	8f#/	.	8ff#\	.	8f#/	8f#\	.	8F#\	.	8f#\ 8F#\	.	4r	.	8ff#\ 8f#\	.	8ff#\ 8f#\	.	2r	.	8fffff#\	.
.	.	8r	.	8r	.	8r	.	8r	.	8r	8ryy	.	8r	.	8r	.	.	.	8r	.	8r	.	.	.	8r	.
.	.	(16F#\LL	.	(16f#\LL	.	8a#X/ 8c#/	.	8ff#\ 8cc#\ 8f#\	ff	8f#/	8f#\	.	8F#\	.	(16F#\LL	.	8ff#/ 8f#/	.	8ff#\ 8a#X\	.	8aa#X\ 8cc#\	.	.	.	8fffff#\	.
.	.	16E\)	.	16e\)	.	.	.	.	.	.	.	.	.	.	16E\)	.	.	.	.	.	.	.	.	.	.	.
.	.	16D'\	.	16d'\	.	8r	.	8r	.	8r	8ryy	.	8r	.	16D'\	.	8r	.	8r	.	8r	.	.	.	8r	.
.	.	16C#'\JJ	.	16c#'\JJ	.	.	.	.	.	.	.	.	.	.	16C#'\JJ	.	.	.	.	.	.	.	.	.	.	.
*	*	*	*	*	*	*	*	*	*	*v	*v	*	*	*	*	*	*	*	*	*	*	*	*	*	*	*
=29	=29	=29	=29	=29	=29	=29	=29	=29	=29	=29	=29	=29	=29	=29	=29	=29	=29	=29	=29	=29	=29	=29	=29	=29	=29
.	.	.	.	.	.	.	.	(16qqff#/LL	f	.	.	.	.	.	.	.	.	.	.	.	.	.	.	(16qqffff#/LL	.
.	.	.	.	.	.	.	.	16qqgg#X/)	.	.	.	.	.	.	.	.	.	.	.	.	.	.	.	16qqgggg#X/)	.
!	!	!	!	!	!	!	!	!	!	!	!	!	!	!	!	!	!	!	!	!	!	!	!	!LO:TX:a:t=W partyturze adnotacja A. B - skopiowałam część A., część B wpisana w źródle	!
.	.	.	.	.	.	.	.	16qqaa#X/JJ	.	.	.	.	.	.	.	.	.	.	.	.	.	.	.	16qqaaaa#X/JJ	.
!	!	!	!	!	!	!	!	!	!	!	!	!	!	!	!	!	!	!	!	!	!LO:DY:a	!	!	!	!
4D/	.	4BB/	.	4f#\ 4B\	.	4b/ 4d^/	.	4bb^\	.	4f#/ 4d^/	f	4BB/	.	4B\ 4BB^\	.	4ff#\ 4dd^\	f	4bb\ 4dd^\	f	4bb\ 4dd^\	f	4ddd\	.	4bbbb^\	.
4D/	.	4B\	.	4f#\ 4B\	.	4b/ 4d^/	.	4ff#\ 4b'^\	.	4f#/ 4d^/	.	4B\	.	4B\ 4BB^\	.	4ff#\ 4dd^\	.	4ff#\ 4dd^T\	.	4ff#\ 4dd^T\	.	4dddT\	.	4ffff#^T\	.
=30	=30	=30	=30	=30	=30	=30	=30	=30	=30	=30	=30	=30	=30	=30	=30	=30	=30	=30	=30	=30	=30	=30	=30	=30	=30
4r	.	8E\L	.	8g\L 8B\	.	8b/L 8e/	.	8gg\L 8b'\	.	8g/L 8e/	.	8E\L	.	8B\L 8E\	.	8gg\L 8ee'\	.	8gg\L 8ee'\	.	8gg\L 8ee'\	.	8eee'\L	.	8gggg'\L	.
.	.	8E\J	.	8g\J 8B\	.	8b/J 8e/	.	8gg\J 8b'\	.	8g/J 8e/	.	8E\J	.	8B\J 8E\	.	8gg\J 8ee'\	.	8gg\J 8ee'\	.	8gg\J 8ee'\	.	8eee'\J	.	8gggg'\J	.
*	*	*	*	*	*	*	*	*	*	*	*	*	*	*^	*	*	*	*	*	*	*	*	*	*	*
4D/	.	4BB/	.	4f#\ 4B\	.	4b/ 4d/	.	4ff#\ 4b'^\	.	4f#/ 4d^/	.	4BB/	.	4B\	4BB^\	.	4ff#\ 4dd^\	.	4ff#\ 4ddT\	.	4ff#\ 4ddT\	.	4dddT\	.	4ffff#^t\	.
*	*	*	*	*	*	*	*	*	*	*	*	*	*	*v	*v	*	*	*	*	*	*	*	*	*	*	*
=31	=31	=31	=31	=31	=31	=31	=31	=31	=31	=31	=31	=31	=31	=31	=31	=31	=31	=31	=31	=31	=31	=31	=31	=31	=31
*	*	*	*	*	*	*	*	*	*	*	*	*	*	*	*	*	*	*^	*	*	*	*	*	*	*
2r	.	4F#\	.	8f#\L 8A#X\	.	8cc#/L 8e/	.	16ee\LL	.	8e'/L	.	4F#\	.	4F#\	.	4ff#\ 4cc#\	.	8ee'/L	2r	.	4ee\ 4cc#\	.	2r	.	8eeee'\L	.
.	.	.	.	.	.	.	.	16ee\	.	.	.	.	.	.	.	.	.	.	.	.	.	.	.	.	.	.
.	.	.	.	8f#\ 8A#\	.	8cc#/ 8e/	.	16dd\	.	8d'/	.	.	.	.	.	.	.	8dd'/	.	.	.	.	.	.	8dddd'\	.
.	.	.	.	.	.	.	.	16dd\	.	.	.	.	.	.	.	.	.	.	.	.	.	.	.	.	.	.
.	.	4AA#X/	.	8f#\ 8A#\	.	8cc#/ 8e/	.	16cc#\	.	8c#'/	.	4AA#X/	.	4A#X/ 4AA#X/	.	4ff#\ 4cc#\	.	8cc#'/	.	.	4ee\ 4cc#\	.	.	.	8cccc#'\	.
.	.	.	.	.	.	.	.	16cc#\	.	.	.	.	.	.	.	.	.	.	.	.	.	.	.	.	.	.
.	.	.	.	8f#\J 8A#\	.	8cc#/J 8e/	.	16ff#\	.	8f#'/J	.	.	.	.	.	.	.	8ff#'/J	.	.	.	.	.	.	8ffff#'\J	.
.	.	.	.	.	.	.	.	16ff#\JJ	.	.	.	.	.	.	.	.	.	.	.	.	.	.	.	.	.	.
=32	=32	=32	=32	=32	=32	=32	=32	=32	=32	=32	=32	=32	=32	=32	=32	=32	=32	=32	=32	=32	=32	=32	=32	=32	=32	=32
2r	.	8BB/L	.	8f#\L 8B\	.	8b/L 8d/	.	(16dd\LL	.	8d'/L	.	8BB/L	.	8B\L 8BB\	.	8ff#\L 8dd\	.	(16dd/LL	2r	.	8dd\L 8b\	.	2r	.	(16dddd\LL	.
.	.	.	.	.	.	.	.	16ee\	.	.	.	.	.	.	.	.	.	16ee/	.	.	.	.	.	.	16eeee\	.
.	.	8FF#/J	.	8f#\J 8A#X\	.	8e/J 8c#/	.	16cc#\	.	8c#'/J	.	8FF#/J	.	8F#\J 8FF#\	.	8ff#\J 8ee\	.	16cc#/	.	.	8cc#\J 8a#X\	.	.	.	16cccc#\	.
.	.	.	.	.	.	.	.	16dd\JJ)	.	.	.	.	.	.	.	.	.	16dd/JJ	.	.	.	.	.	.	16dddd\JJ	.
.	.	4BB/	.	4f#\ 4B\	.	4d/ 4B/	.	4b\	.	4d'/	.	4BB/	.	4B\ 4BB\	.	4ff#\ 4dd\	.	4b/)	.	.	4dd\ 4b\	.	.	.	4bbb\)	.
*	*	*	*	*	*	*	*	*	*	*	*	*	*	*	*	*	*	*v	*v	*	*	*	*	*	*	*
=33	=33	=33	=33	=33	=33	=33	=33	=33	=33	=33	=33	=33	=33	=33	=33	=33	=33	=33	=33	=33	=33	=33	=33	=33	=33
.	.	.	.	.	.	.	.	.	.	.	.	.	.	.	.	.	.	.	.	.	.	.	.	(16qqffff#/LL	.
.	.	.	.	.	.	.	.	.	.	.	.	.	.	.	.	.	.	.	.	.	.	.	.	16qqgggg#X/	.
.	.	.	.	.	.	.	.	.	.	.	.	.	.	.	.	.	.	.	.	.	.	.	.	16qqaaaa#X/JJ	.
4D/	.	4BB^/	.	4f#\ 4B\	.	4b/ 4d/	.	4bb\ 4b\ 4d^\	.	4f#/ 4d^/	f	4BB/	.	4B\ 4BB^\	.	4ff#\ 4dd\	f	4bb\ 4dd\	.	4bb\ 4dd\	.	4ddd'\	.	4bbbb^\	.
4D/	.	4B^\	.	4f#\ 4B\	.	4b/ 4d/	.	4ff#\ 4b^\	.	4f#/ 4d^/	.	4B\	.	4B\ 4BB^\	.	4ff#\ 4dd^\	.	4ff#\ 4dd^T\	.	4ff#\ 4ddT\	.	4dddT\	.	4ffff#^T\)	.
=34	=34	=34	=34	=34	=34	=34	=34	=34	=34	=34	=34	=34	=34	=34	=34	=34	=34	=34	=34	=34	=34	=34	=34	=34	=34
4r	.	8E\L	.	8g\L 8B\	.	8b/L 8e/	.	8gg\L 8b'\	.	8g/L 8e/	.	8E\L	.	8B\L 8E\	.	8gg\L 8ee\	.	8gg\L 8ee'\	.	8gg\L 8ee'\	.	8eee'\L	.	8gggg'\L	.
.	.	8E\J	.	8g\J 8B\	.	8b/J 8e/	.	8gg\J 8b'\	.	8g/J 8e/	.	8E\J	.	8B\J 8E\	.	8gg\J 8ee\	.	8gg\J 8ee'\	.	8gg\J 8ee'\	.	8eee'\J	.	8gggg'\J	.
*	*	*	*	*	*	*	*	*	*	*	*	*	*	*^	*	*	*	*	*	*	*	*	*	*	*
4D/	.	4BB/	.	4f#\ 4B\	.	4b/ 4d/	.	4ff#\ 4b'^\	.	4f#/ 4d^/	.	4BB/	.	4B\	4BB^\	.	4ff#\ 4dd^\	.	4ff#\ 4dd^T\	.	4ff#\ 4ddT\	.	4dddT\	.	4ffff#^t\	.
=35	=35	=35	=35	=35	=35	=35	=35	=35	=35	=35	=35	=35	=35	=35	=35	=35	=35	=35	=35	=35	=35	=35	=35	=35	=35	=35
*	*	*	*	*	*	*	*	*	*	*	*	*	*	*	*	*	*^	*	*	*	*^	*	*	*	*	*
!	!	!LO:TX:a:t=P:mixedbeam:problem	!	!	!	!	!	!	!	!	!	!LO:TX:a:t=P:problem=mixedbeam	!	!LO:TX:a:t=P:problem=mixedbeam	!	!	!	!	!	!	!	!	!	!	!	!	!	!
2r	.	8E/L	.	16e\LL	.	16g/LL	.	16cc#\LL	.	4g/ 4e/	.	8E/L	.	4G/	8E\L	.	4gg/	4ee\	.	2r	.	4ee/	4cc#\	.	2r	.	8cccc#'\L	.
.	.	.	.	16e\	.	16g/	.	16cc#\	.	.	.	.	.	.	.	.	.	.	.	.	.	.	.	.	.	.	.	.
.	.	8C#/	.	16c#\	.	16g/	.	16ee\	.	.	.	8C#/	.	.	8C#\	.	.	.	.	.	.	.	.	.	.	.	8eeee'\	.
.	.	.	.	16c#\	.	16g/JJ	.	16ee\	.	.	.	.	.	.	.	.	.	.	.	.	.	.	.	.	.	.	.	.
.	.	8F#/	.	16f#\	.	16b/LL	.	16dd\	.	8f#/L	.	8F#/	.	8B/L	8F#\	.	8ff#/L	8dd\L	.	.	.	8dd/L	8b\L	.	.	.	8dddd'\	.
.	.	.	.	16f#\	.	16b/	.	16dd\	.	.	.	.	.	.	.	.	.	.	.	.	.	.	.	.	.	.	.	.
.	.	8FF#/J	.	16e\	.	16a#X/	.	16cc#\	.	8f#/J	.	8FF#/J	.	8A#X/J	8FF#\J	.	8ff#/J	8ee\J	.	.	.	8cc#/J	8a#X\J	.	.	.	8cccc#'\J	.
.	.	.	.	16e\JJ	.	16a#/JJ	.	16cc#\JJ	.	.	.	.	.	.	.	.	.	.	.	.	.	.	.	.	.	.	.	.
*	*	*	*	*	*	*	*	*	*	*	*	*	*	*v	*v	*	*	*	*	*	*	*v	*v	*	*	*	*	*
=36	=36	=36	=36	=36	=36	=36	=36	=36	=36	=36	=36	=36	=36	=36	=36	=36	=36	=36	=36	=36	=36	=36	=36	=36	=36	=36
8D/	.	8BB/	.	8d\	.	8b/	.	8b'\L	.	8f#/ 8d/	.	8BB/	.	8B\ 8BB\	.	8ff#/	8dd\	.	2r	.	8dd\ 8b\	.	2r	.	8bbb'\L	.
8r	.	8r	.	8r	.	8r	.	(16dd\L	.	8r	.	8r	.	8r	.	8r	8ryy	.	.	.	8r	.	.	.	(16dddd\L	.
.	.	.	.	.	.	.	.	16ff#\JJ	.	.	.	.	.	.	.	.	.	.	.	.	.	.	.	.	16ffff#\JJ	.
8D/	.	8BB/	.	8f#\ 8B\	.	8b/ 8d/	.	8bb\)	.	8f#/ 8d/	.	8BB/	.	8B\ 8BB\	.	8ff#/	8dd\	.	.	.	8bb\ 8dd\	.	.	.	8bbbb\)	.
8r	.	8r	.	8r	.	8r	.	8r	.	8r	.	8r	.	8r	.	8r	8ryy	.	.	.	8r	.	.	.	8r	.
*	*	*	*	*	*	*	*	*	*	*	*	*	*	*	*	*v	*v	*	*	*	*	*	*	*	*	*
=37:|!|:	=37:|!|:	=37:|!|:	=37:|!|:	=37:|!|:	=37:|!|:	=37:|!|:	=37:|!|:	=37:|!|:	=37:|!|:	=37:|!|:	=37:|!|:	=37:|!|:	=37:|!|:	=37:|!|:	=37:|!|:	=37:|!|:	=37:|!|:	=37:|!|:	=37:|!|:	=37:|!|:	=37:|!|:	=37:|!|:	=37:|!|:	=37:|!|:	=37:|!|:
*>C	*	*>C	*	*>C	*	*>C	*	*>C	*	*>C	*	*>C	*	*>C	*	*>C	*	*>C	*	*>C	*	*>C	*	*>C	*
*	*	*	*	*	*	*	*	*	*	*^	*	*	*	*	*	*	*	*	*	*	*	*	*	*	*
!	!	!	!	!	!	!	!	!	!	!	!	!	!	!	!	!	!	!	!	!	!	!	!	!	!LO:TX:a:t=C.	!
4D^/	ff	4G^\	.	4e/ 4G^/	.	4b/ 4d^/	.	4gg\ 4b^\	ff	4g/	4g\	.	4G\	.	4B\ 4G^\	ff	4gg\ 4dd^\	ff	4gg\ 4b\	.	4gg\ 4b^\	.	4ggg^T\	ff	2r	.
4D^/	.	4G^\	.	4e/ 4G^/	.	4b/ 4d^/	.	4gg\ 4b^\	.	4g/	4g\	.	4G\	.	4B\ 4G^\	.	4gg\ 4dd^\	.	4gg\ 4b\	.	4gg\ 4b^\	.	4ggg^T\	.	.	.
=38	=38	=38	=38	=38	=38	=38	=38	=38	=38	=38	=38	=38	=38	=38	=38	=38	=38	=38	=38	=38	=38	=38	=38	=38	=38	=38
4D^/	.	4G^\	.	4e/ 4G^/	.	4b/ 4d^/	.	4gg\ 4b^\	.	4g/	4g\	.	4G\	.	4B\ 4G^\	.	4gg\ 4dd^\	.	4gg\ 4b\	.	4gg\ 4b^\	.	4ggg^T\	.	2r	.
4D^/	.	4G^\	.	4e/ 4G^/	.	4b/ 4d^/	.	4gg\ 4b^\	.	4g/	4g\	.	4G\	.	4B\ 4G^\	.	4gg\ 4dd^\	.	4gg\ 4b\	.	4gg\ 4b^\	.	4ggg^T\	.	.	.
*	*	*	*	*	*	*	*	*	*	*v	*v	*	*	*	*	*	*	*	*	*	*	*	*	*	*	*
=39	=39	=39	=39	=39	=39	=39	=39	=39	=39	=39	=39	=39	=39	=39	=39	=39	=39	=39	=39	=39	=39	=39	=39	=39	=39
!	!	!LO:TX:a:t=P:problem=mixedbeam	!	!	!	!	!	!LO:TX:a:t=|	!	!	!	!	!	!	!	!	!	!	!	!	!	!	!	!	!
.	.	.	.	.	.	.	.	.	.	.	.	.	.	.	.	.	.	8qee/ 8qccn/	.	8qee/ 8qccn/	p	8qccc/	p	(8qeeee'/	p
2r	.	8GG'/L	.	8B/L	.	8B'/L	.	8d/L	p	2r	.	2r	.	8d\L 8B\	p	8gg\L	.	8dd\L 8b\	.	8dd\L 8b'\	.	8bb'\L	.	8dddd'\L)	.
!	!	!	!	!LO:TX:b:t=|	!	!	!	!LO:TX:a:t=|	!	!	!	!	!	!	!	!	!	!	!	!	!	!	!	!	!
.	.	8G'/J	.	(8A#X/J	.	(8c#X^/J	.	(8e^/J	.	.	.	.	.	8c#\ 8A#X^\	.	8gg\	.	8cc#X\ 8a#X\	.	8cc#X\ 8a#X'\	.	8aa#X'\	.	8cccc#'\	.
!	!	!LO:TX:a:t=P:problem=mixedbeam	!	!	!	!	!	!	!	!	!	!	!	!	!	!	!	!	!	!	!	!	!	!	!
.	.	8GG'/L	.	8B/L)	.	8B/L)	.	8d/L)	.	.	.	.	.	8d\ 8B\	.	8gg\	.	8dd\ 8b\	.	8dd\ 8b'\	.	8bb'\	.	8dddd'\	.
!	!	!	!	!LO:TX:b:t=|	!	!	!	!LO:TX:a:t=|	!	!	!	!	!	!	!	!	!	!	!	!	!	!	!	!	!
.	.	8G'/J	.	8A#/J	.	8c#^/J	.	(8e/J	.	.	.	.	.	8c#\J 8A#^\	.	8gg\J	.	8cc#\J 8a#\	.	8cc#\J 8a#'\	.	8aa#'\J	.	8cccc#'\J	.
=40	=40	=40	=40	=40	=40	=40	=40	=40	=40	=40	=40	=40	=40	=40	=40	=40	=40	=40	=40	=40	=40	=40	=40	=40	=40
*	*	*	*	*	*	*	*	*	*	*	*	*	*	*^	*	*	*	*^	*	*^	*	*	*	*	*
!	!	!LO:TX:a:t=P:problem=mixedbeam	!	!	!	!	!	!	!	!	!	!	!	!	!	!	!	!	!LO:TX:a:t=Col Oboe	!	!	!	!	!	!	!	!	!
4r	.	8GG/L	.	8B/L	.	8B/L	.	8d/L)	.	4r	.	4r	.	8d\L 8B\	4ryy	.	8gg\L	.	8dd/L	8b\L	.	8dd/L	8b\L	.	8bb'\L	.	8bbb'\L	.
.	.	8G/J	.	8G/J	.	8B/J	.	8d/J	.	.	.	.	.	8d\J 8B\	.	.	8gg\J	.	16gg/L	16b\L	.	16gg/L	16b\L	.	(16bb\L	.	(16dddd\L	.
.	.	.	.	.	.	.	.	.	.	.	.	.	.	.	.	.	.	.	16aa/JJ	16cc#\JJ	.	16aa/JJ	16cc#\JJ	.	16ccc#\JJ	.	16ffff#\JJ	.
4D/	f	4G^\	.	4G/	f	4B/	f	4d^/	f	4b/ 4d^/	f	4G\	.	4B/	4G^\	.	4gg\	.	4bb/	4dd\	.	4bb/	4dd\	.	4ddd\)	.	4bbbb^\)	.
*	*	*	*	*	*	*	*	*	*	*	*	*	*	*	*	*	*	*	*v	*v	*	*	*	*	*	*	*	*
*	*	*	*	*	*	*	*	*	*	*	*	*	*	*v	*v	*	*	*	*	*	*v	*v	*	*	*	*	*
=41	=41	=41	=41	=41	=41	=41	=41	=41	=41	=41	=41	=41	=41	=41	=41	=41	=41	=41	=41	=41	=41	=41	=41	=41	=41
!	!	!	!	!	!	!	!	!	!	!	!	!	!	!	!	!	!	!LO:TX:a:t=Col Picollini	!	!LO:TX:a:t=Col Picollini	!	!	!	!	!
.	.	.	.	.	.	.	.	.	.	16qqb/	.	.	.	.	.	.	.	(16qqbb/	.	(16qqbb/	.	(16qqddd/	.	(16qqbbbb/	.
*	*	*	*	*	*	*	*	*	*	*	*	*	*	*	*	*^	*	*	*	*	*	*	*	*	*
2r	.	8F#\L	.	8A/L	.	8cn/L	.	8d/L	.	8a/L	.	2r	.	8cn\L 8A\	.	8dd/L	8dd\L	.	8aa\L)	.	8aa\L)	.	8ccc\L)	.	8aaaa\L)	.
.	.	8D\	.	8A/	.	8c/	.	8d/	.	8g#X/	.	.	.	8d\J 8D\	.	8dd/	8dd\	.	8gg#X'\	.	8gg#X'\	.	8bb\	.	8gggg#X'\	.
.	.	8F#\	.	8A/	.	8c/	.	8d/	.	8a/	.	.	.	8cn\L 8A\	.	8dd/	8dd\	.	8aa'\	.	8aa'\	.	8ccc\	.	8aaaa'\	.
.	.	8D\J	.	8A/J	.	8c/J	.	8d/J	.	8b/J	.	.	.	8d\J 8D\	.	8dd/J	8dd\J	.	8bb'\J	.	8bb'\J	.	8ddd\J	.	8bbbb'\J	.
=42	=42	=42	=42	=42	=42	=42	=42	=42	=42	=42	=42	=42	=42	=42	=42	=42	=42	=42	=42	=42	=42	=42	=42	=42	=42	=42
!	!	!LO:TX:a:t=P:problem=mixedbeam	!	!	!	!	!	!	!	!	!	!	!	!	!	!	!	!	!	!	!	!	!	!	!	!
2r	.	8G/L	.	8G/L	.	8B/L	.	8d/L	.	8g/L	.	2r	.	8B\L 8G\	.	8gg/L	8gg\L	.	8gg'\L	.	8gg'\L	.	8bb'/L	.	8gggg'\L	.
.	.	8GG/J	.	8A#X/J	.	8c#X/J	.	(8e^/J	.	8e/J	.	.	.	8c#\J 8GG\	.	8gg/J	8gg\J	.	(16ee\L	.	(16ee\L	.	(8aa#X/J	.	(16eeee\L	.
.	.	.	.	.	.	.	.	.	.	.	.	.	.	.	.	.	.	.	16cc#\JJ)	.	16cc#\JJ)	.	.	.	16cccc#\JJ)	.
.	.	4G\	.	4B/	.	4B/	.	4d/)	.	4d/	.	.	.	4B\ 4G\	.	4gg/	4gg\	.	4dd\	.	4dd\	.	4bb/)	.	4dddd\	.
=43	=43	=43	=43	=43	=43	=43	=43	=43	=43	=43	=43	=43	=43	=43	=43	=43	=43	=43	=43	=43	=43	=43	=43	=43	=43	=43
!	!	!LO:TX:a:t=P:problem=mixedbeam	!	!	!	!	!	!	!	!	!	!	!	!	!	!	!	!	!	!	!	!	!	!	!	!
.	.	.	.	.	.	.	.	.	.	.	.	.	.	.	.	.	.	.	(16qqee/	.	(16qqee/	.	(16qqccc#/	.	(16qqeeee/	.
2r	.	8GG/L	.	8B/L	.	8B/L	.	8d/L	.	2r	.	2r	.	8d\L 8B\	.	8gg/L	8gg\L	.	8dd\L)	.	8dd\L)	.	8bb\L)	.	8dddd\L)	.
.	.	8G^/J	.	(8A#X^/	.	(8c#^/	.	(8e^/	.	.	.	.	.	8c#X\J 8A#X\	.	8gg/	8gg\	.	8cc#'\	.	8cc#'\	.	8aa#X\	.	8cccc#'\	.
!	!	!LO:TX:a:t=P:problem=mixedbeam	!	!	!	!	!	!	!	!	!	!	!	!	!	!	!	!	!	!	!	!	!	!	!	!
.	.	8GG/L	.	8B/)	.	8B/)	.	8d/)	.	.	.	.	.	8d\L 8B\	.	8gg/	8gg\	.	8dd'\	.	8dd'\	.	8bb\	.	8dddd'\	.
.	.	8G^/J	.	(8A#^/J	.	(8c#^/J	.	(8e^/J	.	.	.	.	.	8c#X\J 8A#\	.	8gg/J	8gg\J	.	8cc#'\J	.	8cc#'\J	.	8aa#\J	.	8cccc#'\J	.
=44	=44	=44	=44	=44	=44	=44	=44	=44	=44	=44	=44	=44	=44	=44	=44	=44	=44	=44	=44	=44	=44	=44	=44	=44	=44	=44
!	!	!LO:TX:a:t=P:problem=mixedbeam	!	!	!	!	!	!	!	!	!	!	!	!	!	!	!	!	!	!	!	!	!	!	!	!
4r	.	8GG/L	<	8B/L)	.	8B/L)	.	8d/L)	.	4r	.	4r	.	8d\L 8B\	<	8gg/L	8gg\L	.	8dd'\L	<	8dd'\L	<	8bb'\L	.	8dddd'\L	<
.	.	8G/J	[ f >	8G/J	.	8B'/J	.	8d'/J	.	.	.	.	.	8B\J 8G\	[ f >	8gg/J	8gg\J	.	(16gg\L	.	(16gg\L	.	(16bb\L	.	(16gggg\L	.
.	.	.	.	.	.	.	.	.	.	.	.	.	.	.	.	.	.	.	16aa\JJ	.	16aa\JJ	.	16ccc#\JJ	.	16aaaa\JJ	.
4D^/	f	4G\	]]	4G/	.	4B'/	.	4d/	.	4b/ 4d/	.	4G^\	f	4B\ 4G\	]]	4gg/	4gg\	.	4bb\)	[ f	4bb\)	[ f	4ddd\)	.	4bbbb\)	[ f
=45	=45	=45	=45	=45	=45	=45	=45	=45	=45	=45	=45	=45	=45	=45	=45	=45	=45	=45	=45	=45	=45	=45	=45	=45	=45	=45
.	.	.	.	.	.	.	.	.	.	(16qqb/	.	.	.	.	.	.	.	.	(16qqbb/	.	(16qqbb/	.	(16qqddd/	.	(16qqbbbb/	.
2r	.	8F#\L	.	8A/L	.	8cn/L	.	8d/L	.	8a/L)	.	2r	.	8cn\L 8A\	.	8dd/L	8dd\L	.	8aa\L)	.	8aa\L)	.	8ccc\L)	.	8aaaa\L)	.
.	.	8D\J	.	8A/	.	8c/	.	8d/	.	8g#X'/	.	.	.	8d\J 8D\	.	8dd/	8dd\	.	8gg#X'\	.	8gg#X'\	.	8bb\	.	8gggg#X'\	.
.	.	8F#\L	.	8A/	.	8c/	.	8d/	.	8a'/	.	.	.	8cn\L 8A\	.	8dd/	8dd\	.	8aa'\	.	8aa'\	.	8ccc\	.	8aaaa'\	.
.	.	8D\J	.	8A/J	.	8c/J	.	8d/J	.	8b'/J	.	.	.	8d\J 8D\	.	8dd/J	8dd\J	.	8bb'\J	.	8bb'\J	.	8ddd\J	.	8bbbb'\J	.
=46	=46	=46	=46	=46	=46	=46	=46	=46	=46	=46	=46	=46	=46	=46	=46	=46	=46	=46	=46	=46	=46	=46	=46	=46	=46	=46
2r	.	8G\	.	8G/	.	8B/	.	8d/	.	8g/	.	2r	.	8B\ 8G\	.	8gg/	8dd\	.	8ggn\ 8b'\	.	8gg\ 8b'\	.	8bb\	.	8gggg'\	.
.	.	8r	.	8r	.	8r	.	8r	.	8r	.	.	.	8r	.	8r	8r	.	8r	.	8r	.	8r	.	8r	.
.	.	4G\	.	4d/ 4G/	.	4b/ 4d/ 4G/	.	4gg\ 4b\ 4d\	.	4g/	.	.	.	4B\ 4G\	.	4gg/	4dd\	.	4gg\ 4b'\	.	4gg\ 4b'\	.	4ggg\	.	4gggg'\	.
=47:|!|:	=47:|!|:	=47:|!|:	=47:|!|:	=47:|!|:	=47:|!|:	=47:|!|:	=47:|!|:	=47:|!|:	=47:|!|:	=47:|!|:	=47:|!|:	=47:|!|:	=47:|!|:	=47:|!|:	=47:|!|:	=47:|!|:	=47:|!|:	=47:|!|:	=47:|!|:	=47:|!|:	=47:|!|:	=47:|!|:	=47:|!|:	=47:|!|:	=47:|!|:	=47:|!|:
*>D	*	*>D	*	*>D	*	*>D	*	*>D	*	*>D	*	*>D	*	*>D	*	*>D	*>D	*	*>D	*	*>D	*	*>D	*	*>D	*
!	!	!	!	!	!	!	!LO:DY:a	!	!	!	!	!	!LO:DY:a	!	!	!	!	!	!	!	!	!	!	!	!LO:TX:a:t=d.	!
2DT\	<	8G#X\L	.	16B/LL	.	16fn/LL 16d/	<	16ffn\LL	.	2r	.	2GG#X/	p	2B\ 2G#X\	.	2ffX/	2dd\	.	2r	.	2r	.	2r	.	8ffff'\L	.
.	.	.	.	16B/	.	16f/ 16d/	.	16ff\	.	.	.	.	.	.	.	.	.	.	.	.	.	.	.	.	.	.
.	.	8G#\	.	16B/	.	16f/ 16d/	.	16ee\	.	.	.	.	.	.	.	.	.	.	.	.	.	.	.	.	8eeee'\	.
.	.	.	.	16B/	.	16f/ 16d/	.	16ee\	.	.	.	.	.	.	.	.	.	.	.	.	.	.	.	.	.	.
.	.	8G#\	.	16B/	.	16f/ 16d/	.	16dd\	.	.	.	.	.	.	.	.	.	.	.	.	.	.	.	.	8dddd'\	.
.	.	.	.	16B/	.	16f/ 16d/	.	16dd\	.	.	.	.	.	.	.	.	.	.	.	.	.	.	.	.	.	.
.	.	8G#\J	.	16B/	.	16f/ 16d/	.	16cc#\	.	.	.	.	.	.	.	.	.	.	.	.	.	.	.	.	8cccc#'\J	.
.	.	.	.	16B/JJ	.	16f/JJ 16d/	.	16cc#\JJ	.	.	.	.	.	.	.	.	.	.	.	.	.	.	.	.	.	.
=48	=48	=48	=48	=48	=48	=48	=48	=48	=48	=48	=48	=48	=48	=48	=48	=48	=48	=48	=48	=48	=48	=48	=48	=48	=48	=48
.	.	.	.	.	.	.	.	8qee/	.	.	.	.	.	.	.	.	.	.	.	.	.	.	.	.	8qeeee/	<
!	!	!	!	!	!	!	!	!	!	!	!	!	!LO:DY:a	!	!LO:DY:a	!	!	!	!	!	!	!	!	!	!	!
2D\	.	8A\L	.	16A/LL	.	16fn/LL 16d/	.	8dd\L	.	2r	.	2AA/	<[	2A\	<	2ffX/	2dd\	.	2r	.	2r	.	2r	.	8dddd\L	.
.	.	.	.	16A/	.	16f/ 16d/	.	.	.	.	.	.	.	.	.	.	.	.	.	.	.	.	.	.	.	.
.	.	8A\	.	16A/	.	16f/ 16d/	.	8cc#\J	.	.	.	.	.	.	.	.	.	.	.	.	.	.	.	.	8cccc#'\J	.
.	.	.	.	16A/	.	16f/ 16d/	.	.	.	.	.	.	.	.	.	.	.	.	.	.	.	.	.	.	.	.
.	.	8A\	.	16A/	.	16f/ 16d/	.	4dd\	.	.	.	.	.	.	.	.	.	.	.	.	.	.	.	.	4dddd'\	[[
.	.	.	.	16A/	.	16f/ 16d/	.	.	.	.	.	.	.	.	.	.	.	.	.	.	.	.	.	.	.	.
.	.	8A\J	.	16A/	.	16f/ 16d/	.	.	.	.	.	.	.	.	.	.	.	.	.	.	.	.	.	.	.	.
.	.	.	.	16A/JJ	.	16f/JJ 16d/	.	.	.	.	.	.	.	.	.	.	.	.	.	.	.	.	.	.	.	.
=49	=49	=49	=49	=49	=49	=49	=49	=49	=49	=49	=49	=49	=49	=49	=49	=49	=49	=49	=49	=49	=49	=49	=49	=49	=49	=49
*	*	*	*	*	*	*	*	*	*	*^	*	*	*	*	*	*	*	*	*	*	*^	*	*	*	*	*
2D\	[[	8B-X\L	.	16B-X/LL	.	16fn/LL 16d/	.	16ff#\LL	.	2fX/	2d\	.	2BB-X/	.	2B-X\	[[	2ffX/	2dd\	.	8fn/L	.	8ffn'/L	8ff\L	.	2r	.	8ffff'\L	<
.	.	.	.	16B-/	.	16f/ 16d/	.	16ff#\	.	.	.	.	.	.	.	.	.	.	.	.	.	.	.	.	.	.	.	.
.	.	8B-\	.	16B-/	.	16f/ 16d/	.	16ee\	.	.	.	.	.	.	.	.	.	.	.	8e/	.	8ee'/	8ee\	.	.	.	8eeee'\	.
.	.	.	.	16B-/	.	16f/ 16d/	.	16ee\	.	.	.	.	.	.	.	.	.	.	.	.	.	.	.	.	.	.	.	.
.	.	8B-\	.	16B-/	.	16f/ 16d/	.	16dd\	.	.	.	.	.	.	.	.	.	.	.	8d/	.	8dd'/	8dd\	.	.	.	8dddd'\	.
.	.	.	.	16B-/	.	16f/ 16d/	.	16dd\	.	.	.	.	.	.	.	.	.	.	.	.	.	.	.	.	.	.	.	.
.	.	8B-\J	.	16B-/	.	16f/ 16d/	.	16cc#\	.	.	.	.	.	.	.	.	.	.	.	8c#/J	.	8cc#'/J	8cc#\J	.	.	.	8cccc#'\J	[[
.	.	.	.	16B-/JJ	.	16f/JJ 16d/	[[	16cc#\JJ	.	.	.	.	.	.	.	.	.	.	.	.	.	.	.	.	.	.	.	.
*	*	*	*	*	*	*	*	*	*	*v	*v	*	*	*	*	*	*	*	*	*	*	*v	*v	*	*	*	*	*
=50	=50	=50	=50	=50	=50	=50	=50	=50	=50	=50	=50	=50	=50	=50	=50	=50	=50	=50	=50	=50	=50	=50	=50	=50	=50	=50
!	!	!	!	!	!	!	!	!	!	!	!	!	!	!	!	!	!	!	!LO:TX:a:t=W źrodle partia Corni nad Clarinetti	!LO:DY:a	!	!	!	!	!	!
.	.	.	.	.	.	.	.	8qee/	f	.	.	.	.	.	.	.	.	.	8qe/	f	(8qee/	f	.	.	(8qeeee/	f
2DT/	f	8Bn\L	f	16Bn/LL	f	16fn/LL 16d/	f	8dd\L	.	2fX/ 2d/	f	2BBn/	f	2Bn\	f	2ffX/	2dd\	.	8d/L	.	8dd\L)	.	2r	.	8dddd\L)	.
.	.	.	.	16B/	.	16f/ 16d/	.	.	.	.	.	.	.	.	.	.	.	.	.	.	.	.	.	.	.	.
.	.	8B\	.	16B/	.	16f/ 16d/	.	8cc#\J	.	.	.	.	.	.	.	.	.	.	8c#/J	.	8cc#'\J	.	.	.	8cccc#'\J	.
.	.	.	.	16B/	.	16f/ 16d/	.	.	.	.	.	.	.	.	.	.	.	.	.	.	.	.	.	.	.	.
.	.	8B\	.	16B/	.	16f/ 16d/	.	4dd\	.	.	.	.	.	.	.	.	.	.	4d/	.	4dd'\	.	.	.	4dddd'\	.
.	.	.	.	16B/	.	16f/ 16d/	.	.	.	.	.	.	.	.	.	.	.	.	.	.	.	.	.	.	.	.
.	.	8B\J	.	16B/	.	16f/ 16d/	.	.	.	.	.	.	.	.	.	.	.	.	.	.	.	.	.	.	.	.
.	.	.	.	16B/JJ	.	16f/JJ 16d/	.	.	.	.	.	.	.	.	.	.	.	.	.	.	.	.	.	.	.	.
=51	=51	=51	=51	=51	=51	=51	=51	=51	=51	=51	=51	=51	=51	=51	=51	=51	=51	=51	=51	=51	=51	=51	=51	=51	=51	=51
*	*	*	*	*	*	*	*	*	*	*	*	*	*	*	*	*	*	*	*^	*	*^	*	*	*	*	*
!	!	!LO:TX:a:t=pizz.	!	!	!	!	!	!	!	!LO:TX:a:t=1o. solo	!	!	!	!	!	!	!	!	!	!	!	!	!	!	!	!	!	!
4D/	pp	4A\	.	8d\L	.	8f#X/L 8A/	p	16ff#'\LL	p	8f#/L	p	4AA/	p	4A\	p	8ff#/	8dd\	p	8ff#X/L	4r	p	8ff#X'/L	4r	p	2r	.	8ffff#X'\L	p
.	.	.	.	.	.	.	.	16ff#'\	.	.	.	.	.	.	.	.	.	.	.	.	.	.	.	.	.	.	.	.
.	.	.	.	8d\	.	8f#/ 8A/	.	16ee'\	.	8e/	.	.	.	.	.	8r	8r	.	8ee/	.	.	8ee'/	.	.	.	.	8eeee'\	.
.	.	.	.	.	.	.	.	16ee'\	.	.	.	.	.	.	.	.	.	.	.	.	.	.	.	.	.	.	.	.
4r	.	4r	.	8d\	.	8f#/ 8A/	.	16dd'\	.	8d/	.	4r	.	4r	.	4ff#/	4dd\	.	8dd/	4f#\	.	8dd'/	4a\	.	.	.	8dddd'\	.
.	.	.	.	.	.	.	.	16dd'\	.	.	.	.	.	.	.	.	.	.	.	.	.	.	.	.	.	.	.	.
.	.	.	.	8d\J	.	8f#/J 8A/	.	16cc#'\	.	8c#/J	.	.	.	.	.	.	.	.	8cc#/J	.	.	8cc#'/J	.	.	.	.	8cccc#'\J	.
.	.	.	.	.	.	.	.	16cc#'\JJ	.	.	.	.	.	.	.	.	.	.	.	.	.	.	.	.	.	.	.	.
*	*	*	*	*	*	*	*	*	*	*	*	*	*	*	*	*v	*v	*	*	*	*	*	*	*	*	*	*	*
=52	=52	=52	=52	=52	=52	=52	=52	=52	=52	=52	=52	=52	=52	=52	=52	=52	=52	=52	=52	=52	=52	=52	=52	=52	=52	=52	=52
.	.	.	.	.	.	.	.	(8qcc#/	.	8qc#/	.	.	.	.	.	.	.	(8qcc#/	.	.	(8qcc#/	.	.	.	.	(8qcccc#/	.
4D/	.	4AA/	.	8e\L	.	8g/L 8A/	.	8b/L)	.	8B/L	.	2r	.	4AA/	.	4r	.	8b/L)	4r	.	8b/L)	4r	.	2r	.	8bbb\L)	.
.	.	.	.	8e\	.	8g/ 8A/	.	16a'/L	.	8A/	.	.	.	.	.	.	.	8a/	.	.	8a/	.	.	.	.	8aaa'\	.
.	.	.	.	.	.	.	.	16a'/	.	.	.	.	.	.	.	.	.	.	.	.	.	.	.	.	.	.	.
4r	.	4r	.	8e\	.	8g/ 8A/	.	16b'/	.	8B/	.	.	.	4r	.	4ff#/ 4a/	.	8b/	4f#\	.	8b/	4a\	.	.	.	8bbb'\	.
.	.	.	.	.	.	.	.	16b'/	.	.	.	.	.	.	.	.	.	.	.	.	.	.	.	.	.	.	.
.	.	.	.	8e\J	.	8g/J 8A/	.	16cc#'/	.	8c#/J	.	.	.	.	.	.	.	8cc#/J	.	.	8cc#/J	.	.	.	.	8cccc#'\J	.
.	.	.	.	.	.	.	.	16cc#'/JJ	.	.	.	.	.	.	.	.	.	.	.	.	.	.	.	.	.	.	.
=53	=53	=53	=53	=53	=53	=53	=53	=53	=53	=53	=53	=53	=53	=53	=53	=53	=53	=53	=53	=53	=53	=53	=53	=53	=53	=53	=53
!	!	!	!	!	!	!	!	!	!	!	!	!	!	!	!	!	!	!LO:TX:a:t=1o. Col Picolo 1o.	!	!	!LO:TX:a:t=1o. Col Picolo 1o.	!	!	!	!	!	!
4D/	.	4D/	.	8d\L	.	8f#/L 8A/	.	16dd'\LL	<	8d/L	<	2r	.	4D\	.	4r	.	8dd/L	4r	<	8dd'/L	8r	<	2r	.	8dddd'\L	<
.	.	.	.	.	.	.	.	16dd'\	.	.	.	.	.	.	.	.	.	.	.	.	.	.	.	.	.	.	.
.	.	.	.	8d\	.	8f#/ 8A/	.	16ee'\	.	8e/	.	.	.	.	.	.	.	8ee/	.	.	8ee'/	8r	.	.	.	8eeee'\	.
.	.	.	.	.	.	.	.	16ee'\	.	.	.	.	.	.	.	.	.	.	.	.	.	.	.	.	.	.	.
4D/	.	4D/	.	8d\	.	8f#/ 8A/	.	16ff#'\	.	8f#/	.	.	.	4D\	.	4ff#\ 4dd\	.	8ff#/	4f#\	.	8ff#'/	4a\	.	.	.	8ffff#'\	.
.	.	.	.	.	.	.	.	16ff#'\	.	.	.	.	.	.	.	.	.	.	.	.	.	.	.	.	.	.	.
.	.	.	.	8d\J	.	8f#/J 8A/	.	16gg'\	.	8g/J	.	.	.	.	.	.	.	8gg/J	.	.	8gg'/J	.	.	.	.	8gggg'\J	.
.	.	.	.	.	.	.	.	16gg'\JJ	[[	.	.	.	.	.	.	.	.	.	.	.	.	.	.	.	.	.	.
=54	=54	=54	=54	=54	=54	=54	=54	=54	=54	=54	=54	=54	=54	=54	=54	=54	=54	=54	=54	=54	=54	=54	=54	=54	=54	=54	=54
!	!	!	!	!	!	!	!	!	!	!	!	!	!	!	!	!	!	!LO:TX:a:t=Col Picolino	!	!	!	!	!	!	!	!	!
4D/	.	4D/	.	8d\L	.	8f#/L 8A/	.	16aa^\LL	.	(8a/L	.	2r	.	4D\	.	4r	.	(8aa/L	4r	.	(8aa/L	4r	.	2r	.	(8aaaa\L	.
.	.	.	.	.	.	.	.	16aa\	.	.	.	.	.	.	.	.	.	.	.	.	.	.	.	.	.	.	.
.	.	.	.	8d\	.	8f#/ 8A/	.	16bb\	.	8b/)	.	.	.	.	.	.	.	8bb/)	.	.	8bb/)	.	.	.	.	8bbbb\)	.
.	.	.	.	.	.	.	.	16bb\	.	.	.	.	.	.	.	.	.	.	.	.	.	.	.	.	.	.	.
4r	.	4r	.	8d\	.	8f#/ 8A/	.	16aa'\	.	8a'/	[ >	.	.	4D\	.	4ff#\ 4dd\	.	8aa'/	4f#\	[ >	8aa'/	4a\	[ >	.	.	8aaaa'\	[ >
.	.	.	.	.	.	.	.	16aa'\	.	.	.	.	.	.	.	.	.	.	.	.	.	.	.	.	.	.	.
.	.	.	.	8d\J	.	8f#/J 8A/	.	16gg'\	.	8g'/J	.	.	.	.	.	.	.	8gg'/J	.	.	8gg'/J	.	.	.	.	8gggg'\J	.
.	.	.	.	.	.	.	.	16gg'\JJ	.	.	.	.	.	.	.	.	.	.	.	.	.	.	.	.	.	.	.
=55	=55	=55	=55	=55	=55	=55	=55	=55	=55	=55	=55	=55	=55	=55	=55	=55	=55	=55	=55	=55	=55	=55	=55	=55	=55	=55	=55
4D/	.	4D/	.	8d\L	.	8f#/L 8A/	.	16ff#'\LL	.	8f#'/L	.	2r	.	4D\	.	4r	.	8ff#'/L	4r	.	8ff#'/L	4r	.	2r	.	8ffff#'\L	.
.	.	.	.	.	.	.	.	16ff#'\	.	.	.	.	.	.	.	.	.	.	.	.	.	.	.	.	.	.	.
.	.	.	.	8d\	.	8f#/ 8A/	.	16ee'\	.	8e'/	]	.	.	.	.	.	.	8ee'/	.	]	8ee'/	.	]	.	.	8eeee'\	]
.	.	.	.	.	.	.	.	16ee'\	.	.	.	.	.	.	.	.	.	.	.	.	.	.	.	.	.	.	.
4r	.	4r	.	8d\	.	8f#/ 8A/	.	16dd'\	.	8d'/	.	.	.	4D\	.	4ff#\ 4dd\	.	8dd'/	4f#\	.	8dd'/	4a\	.	.	.	8dddd'\	.
.	.	.	.	.	.	.	.	16dd'\	.	.	.	.	.	.	.	.	.	.	.	.	.	.	.	.	.	.	.
.	.	.	.	8d\J	.	8f#/J 8A/	.	16cc#'\	.	8c#'/J	.	.	.	.	.	.	.	8cc#'/J	.	.	8cc#'/J	.	.	.	.	8cccc#'\J	.
.	.	.	.	.	.	.	.	16cc#'\JJ	.	.	.	.	.	.	.	.	.	.	.	.	.	.	.	.	.	.	.
=56	=56	=56	=56	=56	=56	=56	=56	=56	=56	=56	=56	=56	=56	=56	=56	=56	=56	=56	=56	=56	=56	=56	=56	=56	=56	=56	=56
.	.	.	.	.	.	.	.	(8qcc#/	.	(8qc#/	.	.	.	.	.	.	.	(8qcc#/	.	.	(8qcc#/	.	.	.	.	(8qcccc#/	.
4AA\	.	4AA/	.	8e\L	.	8g/L 8A/	.	8b\L)	.	8B/L)	.	2r	.	4AA/	.	4r	.	8b/L)	4r	.	8b/L)	4r	.	2r	.	8bbb\L)	.
.	.	.	.	8e\	.	8g/ 8A/	.	16a'\L	.	8A'/	.	.	.	.	.	.	.	8a'/	.	.	8a'/	.	.	.	.	8aaa'\	.
.	.	.	.	.	.	.	.	16a'\	.	.	.	.	.	.	.	.	.	.	.	.	.	.	.	.	.	.	.
4r	.	4r	.	8e\	.	8g/ 8A/	.	16b'\	.	8B'/	.	.	.	4r	.	4ee\ 4a\	.	8b'/	4g\	.	8b'/	4a\	.	.	.	8bbb'\	.
.	.	.	.	.	.	.	.	16b'\	.	.	.	.	.	.	.	.	.	.	.	.	.	.	.	.	.	.	.
.	.	.	.	8e\J	.	8g/J 8A/	.	16cc#'\	.	8c#'/J	.	.	.	.	.	.	.	8cc#'/J	.	.	8cc#'/J	.	.	.	.	8cccc#'\J	.
.	.	.	.	.	.	.	.	16cc#'\JJ	.	.	.	.	.	.	.	.	.	.	.	.	.	.	.	.	.	.	.
=57	=57	=57	=57	=57	=57	=57	=57	=57	=57	=57	=57	=57	=57	=57	=57	=57	=57	=57	=57	=57	=57	=57	=57	=57	=57	=57	=57
8D/	.	8D/	.	8d\L	.	8f#/L 8A/	.	16dd'\LL	.	8d/L	.	2r	.	8D\	.	8r	.	8dd'/L	8r	.	8dd'/L	8r	.	2r	.	8dddd'\L	.
.	.	.	.	.	.	.	.	16dd'\	.	.	.	.	.	.	.	.	.	.	.	.	.	.	.	.	.	.	.
8r	.	8r	.	8d\J	.	8f#/J 8A/	.	16ff#\	.	8f#/	.	.	.	8r	.	8ff#\ 8dd\	.	(8ff#/J	8f#\	.	(8ff#/J	8a\	.	.	.	(8ffff#\J	.
.	.	.	.	.	.	.	.	16ff#\JJ	.	.	.	.	.	.	.	.	.	.	.	.	.	.	.	.	.	.	.
8AA/	.	8AA/	.	8e\L 8c#\	.	8g/L 8A/	.	16ee\LL	.	8e/	.	.	.	8AA/	.	8r	.	8ee/L)	8r	.	8ee/L)	8r	.	.	.	8eeee\L)	.
.	.	.	.	.	.	.	.	16ee\	.	.	.	.	.	.	.	.	.	.	.	.	.	.	.	.	.	.	.
8r	.	8r	.	8e\J 8c#\	.	8g/J 8A/	.	16aa'\	.	8a/J	.	.	.	8r	.	8ee/ 8a/	.	8aa/J	8g\	.	8aa/J	8cc#\	.	.	.	8aaaa\J	.
.	.	.	.	.	.	.	.	16aa'\JJ	.	.	.	.	.	.	.	.	.	.	.	.	.	.	.	.	.	.	.
=58	=58	=58	=58	=58	=58	=58	=58	=58	=58	=58	=58	=58	=58	=58	=58	=58	=58	=58	=58	=58	=58	=58	=58	=58	=58	=58	=58
8D/L	.	8D/L	.	8d\L	.	8f#/L 8A/	.	16ff#'\LL	.	8f#/L	.	2r	.	8D/L	.	8ff#\L 8dd\	.	8ff#'/L	8f#\L	.	8ff#'/L	8dd\L	.	2r	.	8ffff#'\L	.
.	.	.	.	.	.	.	.	16ff#'\	.	.	.	.	.	.	.	.	.	.	.	.	.	.	.	.	.	.	.
8AA/J	.	8AA/J	.	8e\J 8c#\	.	8g/J 8A/	.	16ee'\	.	8e/J	.	.	.	8AA/J	.	8ee\J 8a\	.	8ee'/J	8g\J	.	8ee'/J	8cc#\J	.	.	.	8eeee'\J	.
.	.	.	.	.	.	.	.	16ee'\JJ	.	.	.	.	.	.	.	.	.	.	.	.	.	.	.	.	.	.	.
4D/	.	4D\	.	4d\	.	4f#/ 4A/	.	4dd\	.	4d/	.	.	.	4D/	.	4dd/ 4f#/	.	4dd/	4f#\	.	4dd/	4dd\	.	.	.	4dddd\	.
*	*	*	*	*	*	*	*	*	*	*	*	*	*	*	*	*	*	*v	*v	*	*	*	*	*	*	*	*
*	*	*	*	*	*	*	*	*	*	*	*	*	*	*	*	*	*	*	*	*v	*v	*	*	*	*	*
=59||	=59||	=59||	=59||	=59||	=59||	=59||	=59||	=59||	=59||	=59||	=59||	=59||	=59||	=59||	=59||	=59||	=59||	=59||	=59||	=59||	=59||	=59||	=59||	=59||	=59||
*	*	*	*	*	*	*	*	*	*	*^	*	*	*	*	*	*	*	*	*	*	*	*	*	*	*
!	!	!	!	!	!	!	!	!	!	!	!	!	!	!	!	!	!	!	!	!	!	!	!	!	!LO:TX:a:t=c.d.	!
4D^/yy	ffyy	4G^\yy	.	4eyy/ 4G^yy/	.	4byy/ 4d^yy/	.	4gg\ 4b^\	ff	4g/yy	4g\yy	.	4G\yy	.	4Byy\ 4G^yy\	ffy	4ggyy\ 4dd^yy\	ffy	4ggyy\ 4byy\	.	4ggyy\ 4b^yy\	.	4ggg^T\yy	ffy	2r	.
4D^/yy	.	4G^\yy	.	4eyy/ 4G^yy/	.	4byy/ 4d^yy/	.	4gg\ 4b^\	.	4g/yy	4g\yy	.	4G\yy	.	4Byy\ 4G^yy\	.	4ggyy\ 4dd^yy\	.	4ggyy\ 4byy\	.	4ggyy\ 4b^yy\	.	4ggg^T\yy	.	.	.
=60	=60	=60	=60	=60	=60	=60	=60	=60	=60	=60	=60	=60	=60	=60	=60	=60	=60	=60	=60	=60	=60	=60	=60	=60	=60	=60
4D^/yy	.	4G^\yy	.	4eyy/ 4G^yy/	.	4byy/ 4d^yy/	.	4gg\ 4b^\	.	4g/yy	4g\yy	.	4G\yy	.	4Byy\ 4G^yy\	.	4ggyy\ 4dd^yy\	.	4ggyy\ 4byy\	.	4ggyy\ 4b^yy\	.	4ggg^T\yy	.	2r	.
4D^/yy	.	4G^\yy	.	4eyy/ 4G^yy/	.	4byy/ 4d^yy/	.	4gg\ 4b^\	.	4g/yy	4g\yy	.	4G\yy	.	4Byy\ 4G^yy\	.	4ggyy\ 4dd^yy\	.	4ggyy\ 4byy\	.	4ggyy\ 4b^yy\	.	4ggg^T\yy	.	.	.
*	*	*	*	*	*	*	*	*	*	*v	*v	*	*	*	*	*	*	*	*	*	*	*	*	*	*	*
=61	=61	=61	=61	=61	=61	=61	=61	=61	=61	=61	=61	=61	=61	=61	=61	=61	=61	=61	=61	=61	=61	=61	=61	=61	=61
!	!	!LO:TX:a:t=P:problem=mixedbeam	!	!	!	!	!	!	!	!	!	!	!	!	!	!	!	!	!	!	!	!	!	!	!
.	.	.	.	.	.	.	.	.	.	.	.	.	.	.	.	.	.	8qeeyy/ 8qccn/	.	8qeeyy/ 8qccn/	py	8qccc/	py	(8qeeee/	.
2ryy	.	8GG'/Lyy	.	8B/Lyy	.	8B'/Lyy	.	8d/Lyy|	py	2ryy	.	2ryy	.	8dyy\L 8B\	py	8gg\Lyy	.	8ddyy\L 8b\	.	8ddyy\L 8b'\	.	8bb'\Lyy	.	8dddd\L)	.
.	.	8G'/Jyy	.	(y8A#X/Jyy|	.	(y8c#X^/Jyy	.	(y8e^/Jyy|	.	.	.	.	.	8c#yy\ 8A#X^\	.	8gg\yy	.	8cc#Xyy\ 8a#X\	.	8cc#Xyy\ 8a#X'\	.	8aa#X'\	.	8cccc#X^\	.
!	!	!LO:TX:a:t=P:problem=mixedbeam	!	!	!	!	!	!	!	!	!	!	!	!	!	!	!	!	!	!	!	!	!	!	!
.	.	8GG'/Lyy	.	8B/L)yy	.	8B/L)yy	.	8d/L)yy	.	.	.	.	.	8dyy\ 8B\	.	8gg\yy	.	8ddyy\ 8b\	.	8ddyy\ 8b'\	.	8bb'\	.	8dddd\	.
.	.	8G'/Jyy	.	8A#/Jyy|	.	8c#^/Jyy	.	(y8e/Jyy|	.	.	.	.	.	8c#yy\J 8A#^\	.	8gg\Jyy	.	8cc#yy\J 8a#\	.	8cc#yy\J 8a#'\	.	8aa#'\J	.	8cccc#^\J	.
=62	=62	=62	=62	=62	=62	=62	=62	=62	=62	=62	=62	=62	=62	=62	=62	=62	=62	=62	=62	=62	=62	=62	=62	=62	=62
*	*	*	*	*	*	*	*	*	*	*	*	*	*	*^	*	*	*	*^	*	*^	*	*	*	*	*
!	!	!LO:TX:a:t=P:problem=mixedbeam	!	!	!	!	!	!	!	!	!	!	!	!	!	!	!	!	!LO:TX:a:t=Col Oboe	!	!	!	!	!	!	!	!	!
4ryy	.	8GG/Lyy	.	8B/Lyy	.	8B/Lyy	.	8d/L)yy	.	4ryy	.	4ryy	.	8dyy\L 8B\	4ryyyy	.	8gg\Lyy	.	8dd/Lyy	8b\Lyy	.	8dd/Lyy	8b\Lyy	.	8bb'\Lyy	.	8dddd\L	.
.	.	8G/Jyy	.	8G/Jyy	.	8B/Jyy	.	8d/Jyy	.	.	.	.	.	8dyy\J 8B\	.	.	8gg\Jyy	.	16gg/Lyy	16b\Lyy	.	16gg/Lyy	16b\Lyy	.	(y16bb\L	.	16gggg\L	.
.	.	.	.	.	.	.	.	.	.	.	.	.	.	.	.	.	.	.	16aa/JJyy	16cc#\JJyy	.	16aa/JJyy	16cc#\JJyy	.	16ccc#\JJ	.	16aaaa\JJ	.
4D/yy	fy	4G^\yy	.	4G/yy	fy	4B/yy	fy	4d^/yy	fy	4byy/ 4d^yy/	fy	4G\yy	.	4B/yy	4G^\yy	.	4gg\yy	.	4bb/yy	4dd\yy	.	4bb/yy	4dd\yy	.	4ddd\)yy	.	4bbbb^\	.
*	*	*	*	*	*	*	*	*	*	*	*	*	*	*	*	*	*	*	*v	*v	*	*	*	*	*	*	*	*
*	*	*	*	*	*	*	*	*	*	*	*	*	*	*v	*v	*	*	*	*	*	*v	*v	*	*	*	*	*
=63	=63	=63	=63	=63	=63	=63	=63	=63	=63	=63	=63	=63	=63	=63	=63	=63	=63	=63	=63	=63	=63	=63	=63	=63	=63
!	!	!	!	!	!	!	!	!	!	!	!	!	!	!	!	!	!	!LO:TX:a:t=Col Picollini	!	!LO:TX:a:t=Col Picollini	!	!	!	!	!
.	.	.	.	.	.	.	.	.	.	16qqb/yy	.	.	.	.	.	.	.	(y16qqbb/yy	.	(y16qqbb/yy	.	(y16qqddd/	.	(16qqbbbb/	.
*	*	*	*	*	*	*	*	*	*	*	*	*	*	*	*	*^	*	*	*	*	*	*	*	*	*
2ryy	.	8F#\Lyy	.	8A/Lyy	.	8cn/Lyy	.	8d/Lyy	.	8a/Lyy	.	2ryy	.	8cnyy\L 8A\	.	8dd/Lyy	8dd\Lyy	.	8aa\L)yy	.	8aa\L)yy	.	8ccc\L)yy	.	8aaaa\L)	.
.	.	8D\yy	.	8A/yy	.	8c/yy	.	8d/yy	.	8g#X/yy	.	.	.	8dyy\J 8D\	.	8dd/yy	8dd\yy	.	8gg#X'\yy	.	8gg#X'\yy	.	8bb\	.	8gggg#X'\	.
.	.	8F#\yy	.	8A/yy	.	8c/yy	.	8d/yy	.	8a/yy	.	.	.	8cnyy\L 8A\	.	8dd/yy	8dd\yy	.	8aa'\yy	.	8aa'\yy	.	8ccc\	.	8aaaa'\	.
.	.	8D\Jyy	.	8A/Jyy	.	8c/Jyy	.	8d/Jyy	.	8b/Jyy	.	.	.	8dyy\J 8D\	.	8dd/Jyy	8dd\Jyy	.	8bb'\Jyy	.	8bb'\Jyy	.	8ddd\J	.	8bbbb'\J	.
=64	=64	=64	=64	=64	=64	=64	=64	=64	=64	=64	=64	=64	=64	=64	=64	=64	=64	=64	=64	=64	=64	=64	=64	=64	=64	=64
!	!	!LO:TX:a:t=P:problem=mixedbeam	!	!	!	!	!	!	!	!	!	!	!	!	!	!	!	!	!	!	!	!	!	!	!	!
2ryy	.	8G/Lyy	.	8G/Lyy	.	8B/Lyy	.	8d/Lyy	.	8g/Lyy	.	2ryy	.	8Byy\L 8G\	.	8gg/Lyy	8gg\Lyy	.	8gg'\Lyy	.	8gg'\Lyy	.	8bb'/Lyy	.	8gggg'\L	.
.	.	8GG/Jyy	.	8A#X/Jyy	.	8c#X/Jyy	.	(y8e^/Jyy	.	8e/Jyy	.	.	.	8c#yy\J 8GG\	.	8gg/Jyy	8gg\Jyy	.	(y16ee\Lyy	.	(y16ee\Lyy	.	(y8aa#X/J	.	(16eeee^\L	.
.	.	.	.	.	.	.	.	.	.	.	.	.	.	.	.	.	.	.	16cc#\JJ)yy	.	16cc#\JJ)yy	.	.	.	16cccc#\JJ)	.
.	.	4G\yy	.	4B/yy	.	4B/yy	.	4d/)yy	.	4d/yy	.	.	.	4Byy\ 4Gyy\	.	4gg/yy	4gg\yy	.	4dd\yy	.	4dd\yy	.	4bb/)yy	.	4dddd\	.
=65	=65	=65	=65	=65	=65	=65	=65	=65	=65	=65	=65	=65	=65	=65	=65	=65	=65	=65	=65	=65	=65	=65	=65	=65	=65	=65
!	!	!LO:TX:a:t=P:problem=mixedbeam	!	!	!	!	!	!	!	!	!	!	!	!	!	!	!	!	!	!	!	!	!	!	!	!
.	.	.	.	.	.	.	.	.	.	.	.	.	.	.	.	.	.	.	(y16qqee/yy	.	(y16qqee/yy	.	(y16qqccc#/	.	(16qqeeee/	.
2ryy	.	8GG/Lyy	.	8B/Lyy	.	8B/Lyy	.	8d/Lyy	.	2ryy	.	2ryy	.	8dyy\L 8B\	.	8gg/Lyy	8gg\Lyy	.	8dd\L)yy	.	8dd\L)yy	.	8bb\L)yy	.	8dddd\L)	.
.	.	8G^/Jyy	.	(y8A#X^/yy	.	(y8c#^/yy	.	(y8e^/yy	.	.	.	.	.	8c#Xyy\J 8A#X\	.	8gg/yy	8gg\yy	.	8cc#'\yy	.	8cc#'\yy	.	8aa#X\	.	8cccc#X'\	.
!	!	!LO:TX:a:t=P:problem=mixedbeam	!	!	!	!	!	!	!	!	!	!	!	!	!	!	!	!	!	!	!	!	!	!	!	!
.	.	8GG/Lyy	.	8B/)yy	.	8B/)yy	.	8d/)yy	.	.	.	.	.	8dyy\L 8B\	.	8gg/yy	8gg\yy	.	8dd'\yy	.	8dd'\yy	.	8bb\	.	8dddd'\	.
.	.	8G^/Jyy	.	(y8A#^/Jyy	.	(y8c#^/Jyy	.	(y8e^/Jyy	.	.	.	.	.	8c#Xyy\J 8A#\	.	8gg/Jyy	8gg\Jyy	.	8cc#'\Jyy	.	8cc#'\Jyy	.	8aa#\J	.	8cccc#'\J	.
=66	=66	=66	=66	=66	=66	=66	=66	=66	=66	=66	=66	=66	=66	=66	=66	=66	=66	=66	=66	=66	=66	=66	=66	=66	=66	=66
!	!	!LO:TX:a:t=P:problem=mixedbeam	!	!	!	!	!	!	!	!	!	!	!	!	!	!	!	!	!	!	!	!	!	!	!	!
4ryy	.	8GG/Lyy	<	8B/L)yy	.	8B/L)yy	.	8d/L)yy	.	4ryy	.	4ryy	.	8dyy\L 8B\	<	8gg/Lyy	8gg\Lyy	.	8dd'\Lyy	<	8dd'\Lyy	<	8bb'\Lyy	.	8dddd'\L	<
.	.	8G/Jyy	[ fy >	8G/Jyy	.	8B'/Jyy	.	8d'/Jyy	.	.	.	.	.	8Byy\J 8G\	[ fy >	8gg/Jyy	8gg\Jyy	.	(y16gg\Lyy	.	(y16gg\Lyy	.	(y16bb\L	.	(16gggg\L	.
.	.	.	.	.	.	.	.	.	.	.	.	.	.	.	.	.	.	.	16aa\JJyy	.	16aa\JJyy	.	16ccc#\JJ	.	16aaaa\JJ)	.
4D^/yy	fy	4G\yy	]]	4G/yy	.	4B'/yy	.	4d/yy	.	4byy/ 4dyy/	.	4G^\yy	fy	4Byy\ 4Gyy\	]]	4gg/yy	4gg\yy	.	4bb\)yy	[ fy	4bb\)yy	[ fy	4ddd\)yy	.	4bbbb\	[ f
=67	=67	=67	=67	=67	=67	=67	=67	=67	=67	=67	=67	=67	=67	=67	=67	=67	=67	=67	=67	=67	=67	=67	=67	=67	=67	=67
.	.	.	.	.	.	.	.	.	.	(y16qqb/yy	.	.	.	.	.	.	.	.	(y16qqbb/yy	.	(y16qqbb/yy	.	y16qqddd/	.	(16qqbbbb/	.
2ryy	.	8F#\Lyy	.	8A/Lyy	.	8cn/Lyy	.	8d/Lyy	.	8a/L)yy	.	2ryy	.	8cnyy\L 8A\	.	8dd/Lyy	8dd\Lyy	.	8aa\L)yy	.	8aa\L)yy	.	8ccc\L)yy	.	8aaaa\L)	.
.	.	8D\Jyy	.	8A/yy	.	8c/yy	.	8d/yy	.	8g#X'/yy	.	.	.	8dyy\J 8D\	.	8dd/yy	8dd\yy	.	8gg#X'\yy	.	8gg#X'\yy	.	8bb\	.	8gggg#X'\	.
.	.	8F#\Lyy	.	8A/yy	.	8c/yy	.	8d/yy	.	8a'/yy	.	.	.	8cnyy\L 8A\	.	8dd/yy	8dd\yy	.	8aa'\yy	.	8aa'\yy	.	8ccc\	.	8aaaa'\	.
.	.	8D\Jyy	.	8A/Jyy	.	8c/Jyy	.	8d/Jyy	.	8b'/Jyy	.	.	.	8dyy\J 8D\	.	8dd/Jyy	8dd\Jyy	.	8bb'\Jyy	.	8bb'\Jyy	.	8ddd\J	.	8bbbb'\J	.
=68	=68	=68	=68	=68	=68	=68	=68	=68	=68	=68	=68	=68	=68	=68	=68	=68	=68	=68	=68	=68	=68	=68	=68	=68	=68	=68
2ryy	.	8G\yy	.	8G/yy	.	8B/yy	.	8d/yy	.	8g/yy	.	2ryy	.	8Byy\ 8Gyy\	.	8gg/yy	8dd\yy	.	8ggnyy\ 8b'yy\	.	8ggyy\ 8b'yy\	.	8bb\yy	.	8gggg\	.
.	.	8ryy	.	8ryy	.	8ryy	.	8ryy	.	8ryy	.	.	.	8ryy	.	8ryy	8ryy	.	8ryy	.	8ryy	.	8ryy	.	8r	.
!	!	!	!	!	!	!	!	!	!	!	!	!	!	!	!	!	!	!	!	!	!	!	!	!	!LO:TX:a:t=segno	!
.	.	4G\yy	.	4dyy/ 4Gyy/	.	4byy/ 4dyy/ 4Gyy/	.	4ggyy\ 4byy\ 4dyy\	.	4g/yy	.	.	.	4Byy\ 4Gyy\	.	4gg/yy	4dd\yy	.	4ggyy\ 4b'yy\	.	4ggyy\ 4b'yy\	.	4ggg\yy	.	4gggg\	.
=69:|!|:	=69:|!|:	=69:|!|:	=69:|!|:	=69:|!|:	=69:|!|:	=69:|!|:	=69:|!|:	=69:|!|:	=69:|!|:	=69:|!|:	=69:|!|:	=69:|!|:	=69:|!|:	=69:|!|:	=69:|!|:	=69:|!|:	=69:|!|:	=69:|!|:	=69:|!|:	=69:|!|:	=69:|!|:	=69:|!|:	=69:|!|:	=69:|!|:	=69:|!|:	=69:|!|:
*>E	*	*>E	*	*>E	*	*>E	*	*>E	*	*>E	*	*>E	*	*>E	*	*>E	*>E	*	*>E	*	*>E	*	*>E	*	*>E	*
!	!	!	!	!	!	!	!LO:DY:a	!	!	!	!	!	!LO:DY:a	!	!	!	!	!	!	!	!	!	!	!	!LO:TX:a:t=.	!
2DT\	<	8G#X\L	.	16B/LL	.	16fn/LL 16d/	<	16ffn\LL	.	2r	.	2GG#X/	p	2B\ 2G#X\	.	2ffX/	2dd\	.	2r	.	2r	.	2r	.	8ffff'\L	.
.	.	.	.	16B/	.	16f/ 16d/	.	16ff\	.	.	.	.	.	.	.	.	.	.	.	.	.	.	.	.	.	.
.	.	8G#\	.	16B/	.	16f/ 16d/	.	16ee\	.	.	.	.	.	.	.	.	.	.	.	.	.	.	.	.	8eeee'\	.
.	.	.	.	16B/	.	16f/ 16d/	.	16ee\	.	.	.	.	.	.	.	.	.	.	.	.	.	.	.	.	.	.
.	.	8G#\	.	16B/	.	16f/ 16d/	.	16dd\	.	.	.	.	.	.	.	.	.	.	.	.	.	.	.	.	8dddd'\	.
.	.	.	.	16B/	.	16f/ 16d/	.	16dd\	.	.	.	.	.	.	.	.	.	.	.	.	.	.	.	.	.	.
.	.	8G#\J	.	16B/	.	16f/ 16d/	.	16cc#\	.	.	.	.	.	.	.	.	.	.	.	.	.	.	.	.	8cccc#'\J	.
.	.	.	.	16B/JJ	.	16f/JJ 16d/	.	16cc#\JJ	.	.	.	.	.	.	.	.	.	.	.	.	.	.	.	.	.	.
=70	=70	=70	=70	=70	=70	=70	=70	=70	=70	=70	=70	=70	=70	=70	=70	=70	=70	=70	=70	=70	=70	=70	=70	=70	=70	=70
.	.	.	.	.	.	.	.	8qee/	.	.	.	.	.	.	.	.	.	.	.	.	.	.	.	.	8qeeee/	<
!	!	!	!	!	!	!	!	!	!	!	!	!	!LO:DY:a	!	!LO:DY:a	!	!	!	!	!	!	!	!	!	!	!
2D\	.	8A\L	.	16A/LL	.	16fn/LL 16d/	.	8dd\L	.	2r	.	2AA/	<[	2A\	<	2ffX/	2dd\	.	2r	.	2r	.	2r	.	8dddd\L	.
.	.	.	.	16A/	.	16f/ 16d/	.	.	.	.	.	.	.	.	.	.	.	.	.	.	.	.	.	.	.	.
.	.	8A\	.	16A/	.	16f/ 16d/	.	8cc#\J	.	.	.	.	.	.	.	.	.	.	.	.	.	.	.	.	8cccc#'\J	.
.	.	.	.	16A/	.	16f/ 16d/	.	.	.	.	.	.	.	.	.	.	.	.	.	.	.	.	.	.	.	.
.	.	8A\	.	16A/	.	16f/ 16d/	.	4dd\	.	.	.	.	.	.	.	.	.	.	.	.	.	.	.	.	4dddd'\	[[
.	.	.	.	16A/	.	16f/ 16d/	.	.	.	.	.	.	.	.	.	.	.	.	.	.	.	.	.	.	.	.
.	.	8A\J	.	16A/	.	16f/ 16d/	.	.	.	.	.	.	.	.	.	.	.	.	.	.	.	.	.	.	.	.
.	.	.	.	16A/JJ	.	16f/JJ 16d/	.	.	.	.	.	.	.	.	.	.	.	.	.	.	.	.	.	.	.	.
=71	=71	=71	=71	=71	=71	=71	=71	=71	=71	=71	=71	=71	=71	=71	=71	=71	=71	=71	=71	=71	=71	=71	=71	=71	=71	=71
*	*	*	*	*	*	*	*	*	*	*^	*	*	*	*	*	*	*	*	*	*	*^	*	*	*	*	*
2D\	[[	8B-X\L	.	16B-X/LL	.	16fn/LL 16d/	.	16ff#\LL	.	2fX/	2d\	.	2BB-X/	.	2B-X\	[[	2ffX/	2dd\	.	8fn/L	.	8ffn'/L	8ff\L	.	2r	.	8ffff'\L	<
.	.	.	.	16B-/	.	16f/ 16d/	.	16ff#\	.	.	.	.	.	.	.	.	.	.	.	.	.	.	.	.	.	.	.	.
.	.	8B-\	.	16B-/	.	16f/ 16d/	.	16ee\	.	.	.	.	.	.	.	.	.	.	.	8e/	.	8ee'/	8ee\	.	.	.	8eeee'\	.
.	.	.	.	16B-/	.	16f/ 16d/	.	16ee\	.	.	.	.	.	.	.	.	.	.	.	.	.	.	.	.	.	.	.	.
.	.	8B-\	.	16B-/	.	16f/ 16d/	.	16dd\	.	.	.	.	.	.	.	.	.	.	.	8d/	.	8dd'/	8dd\	.	.	.	8dddd'\	.
.	.	.	.	16B-/	.	16f/ 16d/	.	16dd\	.	.	.	.	.	.	.	.	.	.	.	.	.	.	.	.	.	.	.	.
.	.	8B-\J	.	16B-/	.	16f/ 16d/	.	16cc#\	.	.	.	.	.	.	.	.	.	.	.	8c#/J	.	8cc#'/J	8cc#\J	.	.	.	8cccc#'\J	[[
.	.	.	.	16B-/JJ	.	16f/JJ 16d/	[[	16cc#\JJ	.	.	.	.	.	.	.	.	.	.	.	.	.	.	.	.	.	.	.	.
*	*	*	*	*	*	*	*	*	*	*v	*v	*	*	*	*	*	*	*	*	*	*	*v	*v	*	*	*	*	*
=72	=72	=72	=72	=72	=72	=72	=72	=72	=72	=72	=72	=72	=72	=72	=72	=72	=72	=72	=72	=72	=72	=72	=72	=72	=72	=72
!	!	!	!	!	!	!	!	!	!	!	!	!	!	!	!	!	!	!	!LO:TX:a:t=W źrodle partia Corni nad Clarinetti	!LO:DY:a	!	!	!	!	!	!
.	.	.	.	.	.	.	.	8qee/	f	.	.	.	.	.	.	.	.	.	8qe/	f	(8qee/	f	.	.	(8qeeee/	f
2DT/	f	8Bn\L	f	16Bn/LL	f	16fn/LL 16d/	f	8dd\L	.	2fX/ 2d/	f	2BBn/	f	2Bn\	f	2ffX/	2dd\	.	8d/L	.	8dd\L)	.	2r	.	8dddd\L)	.
.	.	.	.	16B/	.	16f/ 16d/	.	.	.	.	.	.	.	.	.	.	.	.	.	.	.	.	.	.	.	.
.	.	8B\	.	16B/	.	16f/ 16d/	.	8cc#\J	.	.	.	.	.	.	.	.	.	.	8c#/J	.	8cc#'\J	.	.	.	8cccc#'\J	.
.	.	.	.	16B/	.	16f/ 16d/	.	.	.	.	.	.	.	.	.	.	.	.	.	.	.	.	.	.	.	.
.	.	8B\	.	16B/	.	16f/ 16d/	.	4dd\	.	.	.	.	.	.	.	.	.	.	4d/	.	4dd'\	.	.	.	4dddd'\	.
.	.	.	.	16B/	.	16f/ 16d/	.	.	.	.	.	.	.	.	.	.	.	.	.	.	.	.	.	.	.	.
.	.	8B\J	.	16B/	.	16f/ 16d/	.	.	.	.	.	.	.	.	.	.	.	.	.	.	.	.	.	.	.	.
.	.	.	.	16B/JJ	.	16f/JJ 16d/	.	.	.	.	.	.	.	.	.	.	.	.	.	.	.	.	.	.	.	.
=73	=73	=73	=73	=73	=73	=73	=73	=73	=73	=73	=73	=73	=73	=73	=73	=73	=73	=73	=73	=73	=73	=73	=73	=73	=73	=73
*	*	*	*	*	*	*	*	*	*	*	*	*	*	*	*	*	*	*	*^	*	*^	*	*	*	*	*
!	!	!LO:TX:a:t=pizz.	!	!	!	!	!	!	!	!LO:TX:a:t=1o. solo	!	!	!	!	!	!	!	!	!	!	!	!	!	!	!	!	!	!
4D/	pp	4A\	.	8d\L	.	8f#X/L 8A/	p	16ff#'\LL	p	8f#/L	p	4AA/	p	4A\	p	8ff#/	8dd\	p	8ff#X/L	4r	p	8ff#X'/L	4r	p	2r	.	8ffff#X'\L	p
.	.	.	.	.	.	.	.	16ff#'\	.	.	.	.	.	.	.	.	.	.	.	.	.	.	.	.	.	.	.	.
.	.	.	.	8d\	.	8f#/ 8A/	.	16ee'\	.	8e/	.	.	.	.	.	8r	8r	.	8ee/	.	.	8ee'/	.	.	.	.	8eeee'\	.
.	.	.	.	.	.	.	.	16ee'\	.	.	.	.	.	.	.	.	.	.	.	.	.	.	.	.	.	.	.	.
4r	.	4r	.	8d\	.	8f#/ 8A/	.	16dd'\	.	8d/	.	4r	.	4r	.	4ff#/	4dd\	.	8dd/	4f#\	.	8dd'/	4a\	.	.	.	8dddd'\	.
.	.	.	.	.	.	.	.	16dd'\	.	.	.	.	.	.	.	.	.	.	.	.	.	.	.	.	.	.	.	.
.	.	.	.	8d\J	.	8f#/J 8A/	.	16cc#'\	.	8c#/J	.	.	.	.	.	.	.	.	8cc#/J	.	.	8cc#'/J	.	.	.	.	8cccc#'\J	.
.	.	.	.	.	.	.	.	16cc#'\JJ	.	.	.	.	.	.	.	.	.	.	.	.	.	.	.	.	.	.	.	.
*	*	*	*	*	*	*	*	*	*	*	*	*	*	*	*	*v	*v	*	*	*	*	*	*	*	*	*	*	*
=74	=74	=74	=74	=74	=74	=74	=74	=74	=74	=74	=74	=74	=74	=74	=74	=74	=74	=74	=74	=74	=74	=74	=74	=74	=74	=74	=74
.	.	.	.	.	.	.	.	(8qcc#/	.	8qc#/	.	.	.	.	.	.	.	(8qcc#/	.	.	(8qcc#/	.	.	.	.	(8qcccc#/	.
4D/	.	4AA/	.	8e\L	.	8g/L 8A/	.	8b/L)	.	8B/L	.	2r	.	4AA/	.	4r	.	8b/L)	4r	.	8b/L)	4r	.	2r	.	8bbb\L)	.
.	.	.	.	8e\	.	8g/ 8A/	.	16a'/L	.	8A/	.	.	.	.	.	.	.	8a/	.	.	8a/	.	.	.	.	8aaa'\	.
.	.	.	.	.	.	.	.	16a'/	.	.	.	.	.	.	.	.	.	.	.	.	.	.	.	.	.	.	.
4r	.	4r	.	8e\	.	8g/ 8A/	.	16b'/	.	8B/	.	.	.	4r	.	4ff#/ 4a/	.	8b/	4f#\	.	8b/	4a\	.	.	.	8bbb'\	.
.	.	.	.	.	.	.	.	16b'/	.	.	.	.	.	.	.	.	.	.	.	.	.	.	.	.	.	.	.
.	.	.	.	8e\J	.	8g/J 8A/	.	16cc#'/	.	8c#/J	.	.	.	.	.	.	.	8cc#/J	.	.	8cc#/J	.	.	.	.	8cccc#'\J	.
.	.	.	.	.	.	.	.	16cc#'/JJ	.	.	.	.	.	.	.	.	.	.	.	.	.	.	.	.	.	.	.
=75	=75	=75	=75	=75	=75	=75	=75	=75	=75	=75	=75	=75	=75	=75	=75	=75	=75	=75	=75	=75	=75	=75	=75	=75	=75	=75	=75
!	!	!	!	!	!	!	!	!	!	!	!	!	!	!	!	!	!	!LO:TX:a:t=1o. Col Picolo 1o.	!	!	!LO:TX:a:t=1o. Col Picolo 1o.	!	!	!	!	!	!
4D/	.	4D/	.	8d\L	.	8f#/L 8A/	.	16dd'\LL	<	8d/L	<	2r	.	4D\	.	4r	.	8dd/L	4r	<	8dd'/L	8r	<	2r	.	8dddd'\L	<
.	.	.	.	.	.	.	.	16dd'\	.	.	.	.	.	.	.	.	.	.	.	.	.	.	.	.	.	.	.
.	.	.	.	8d\	.	8f#/ 8A/	.	16ee'\	.	8e/	.	.	.	.	.	.	.	8ee/	.	.	8ee'/	8r	.	.	.	8eeee'\	.
.	.	.	.	.	.	.	.	16ee'\	.	.	.	.	.	.	.	.	.	.	.	.	.	.	.	.	.	.	.
4D/	.	4D/	.	8d\	.	8f#/ 8A/	.	16ff#'\	.	8f#/	.	.	.	4D\	.	4ff#\ 4dd\	.	8ff#/	4f#\	.	8ff#'/	4a\	.	.	.	8ffff#'\	.
.	.	.	.	.	.	.	.	16ff#'\	.	.	.	.	.	.	.	.	.	.	.	.	.	.	.	.	.	.	.
.	.	.	.	8d\J	.	8f#/J 8A/	.	16gg'\	.	8g/J	.	.	.	.	.	.	.	8gg/J	.	.	8gg'/J	.	.	.	.	8gggg'\J	.
.	.	.	.	.	.	.	.	16gg'\JJ	[[	.	.	.	.	.	.	.	.	.	.	.	.	.	.	.	.	.	.
=76	=76	=76	=76	=76	=76	=76	=76	=76	=76	=76	=76	=76	=76	=76	=76	=76	=76	=76	=76	=76	=76	=76	=76	=76	=76	=76	=76
!	!	!	!	!	!	!	!	!	!	!	!	!	!	!	!	!	!	!LO:TX:a:t=Col Picolino	!	!	!	!	!	!	!	!	!
4D/	.	4D/	.	8d\L	.	8f#/L 8A/	.	16aa^\LL	.	(8a/L	.	2r	.	4D\	.	4r	.	(8aa/L	4r	.	(8aa/L	4r	.	2r	.	(8aaaa\L	.
.	.	.	.	.	.	.	.	16aa\	.	.	.	.	.	.	.	.	.	.	.	.	.	.	.	.	.	.	.
.	.	.	.	8d\	.	8f#/ 8A/	.	16bb\	.	8b/)	.	.	.	.	.	.	.	8bb/)	.	.	8bb/)	.	.	.	.	8bbbb\)	.
.	.	.	.	.	.	.	.	16bb\	.	.	.	.	.	.	.	.	.	.	.	.	.	.	.	.	.	.	.
4r	.	4r	.	8d\	.	8f#/ 8A/	.	16aa'\	.	8a'/	[ >	.	.	4D\	.	4ff#\ 4dd\	.	8aa'/	4f#\	[ >	8aa'/	4a\	[ >	.	.	8aaaa'\	[ >
.	.	.	.	.	.	.	.	16aa'\	.	.	.	.	.	.	.	.	.	.	.	.	.	.	.	.	.	.	.
.	.	.	.	8d\J	.	8f#/J 8A/	.	16gg'\	.	8g'/J	.	.	.	.	.	.	.	8gg'/J	.	.	8gg'/J	.	.	.	.	8gggg'\J	.
.	.	.	.	.	.	.	.	16gg'\JJ	.	.	.	.	.	.	.	.	.	.	.	.	.	.	.	.	.	.	.
=77	=77	=77	=77	=77	=77	=77	=77	=77	=77	=77	=77	=77	=77	=77	=77	=77	=77	=77	=77	=77	=77	=77	=77	=77	=77	=77	=77
4D/	.	4D/	.	8d\L	.	8f#/L 8A/	.	16ff#'\LL	.	8f#'/L	.	2r	.	4D\	.	4r	.	8ff#'/L	4r	.	8ff#'/L	4r	.	2r	.	8ffff#'\L	.
.	.	.	.	.	.	.	.	16ff#'\	.	.	.	.	.	.	.	.	.	.	.	.	.	.	.	.	.	.	.
.	.	.	.	8d\	.	8f#/ 8A/	.	16ee'\	.	8e'/	]	.	.	.	.	.	.	8ee'/	.	]	8ee'/	.	]	.	.	8eeee'\	]
.	.	.	.	.	.	.	.	16ee'\	.	.	.	.	.	.	.	.	.	.	.	.	.	.	.	.	.	.	.
4r	.	4r	.	8d\	.	8f#/ 8A/	.	16dd'\	.	8d'/	.	.	.	4D\	.	4ff#\ 4dd\	.	8dd'/	4f#\	.	8dd'/	4a\	.	.	.	8dddd'\	.
.	.	.	.	.	.	.	.	16dd'\	.	.	.	.	.	.	.	.	.	.	.	.	.	.	.	.	.	.	.
.	.	.	.	8d\J	.	8f#/J 8A/	.	16cc#'\	.	8c#'/J	.	.	.	.	.	.	.	8cc#'/J	.	.	8cc#'/J	.	.	.	.	8cccc#'\J	.
.	.	.	.	.	.	.	.	16cc#'\JJ	.	.	.	.	.	.	.	.	.	.	.	.	.	.	.	.	.	.	.
=78	=78	=78	=78	=78	=78	=78	=78	=78	=78	=78	=78	=78	=78	=78	=78	=78	=78	=78	=78	=78	=78	=78	=78	=78	=78	=78	=78
.	.	.	.	.	.	.	.	(8qcc#/	.	(8qc#/	.	.	.	.	.	.	.	(8qcc#/	.	.	(8qcc#/	.	.	.	.	(8qcccc#/	.
4AA\	.	4AA/	.	8e\L	.	8g/L 8A/	.	8b\L)	.	8B/L)	.	2r	.	4AA/	.	4r	.	8b/L)	4r	.	8b/L)	4r	.	2r	.	8bbb\L)	.
.	.	.	.	8e\	.	8g/ 8A/	.	16a'\L	.	8A'/	.	.	.	.	.	.	.	8a'/	.	.	8a'/	.	.	.	.	8aaa'\	.
.	.	.	.	.	.	.	.	16a'\	.	.	.	.	.	.	.	.	.	.	.	.	.	.	.	.	.	.	.
4r	.	4r	.	8e\	.	8g/ 8A/	.	16b'\	.	8B'/	.	.	.	4r	.	4ee\ 4a\	.	8b'/	4g\	.	8b'/	4a\	.	.	.	8bbb'\	.
.	.	.	.	.	.	.	.	16b'\	.	.	.	.	.	.	.	.	.	.	.	.	.	.	.	.	.	.	.
.	.	.	.	8e\J	.	8g/J 8A/	.	16cc#'\	.	8c#'/J	.	.	.	.	.	.	.	8cc#'/J	.	.	8cc#'/J	.	.	.	.	8cccc#'\J	.
.	.	.	.	.	.	.	.	16cc#'\JJ	.	.	.	.	.	.	.	.	.	.	.	.	.	.	.	.	.	.	.
=79	=79	=79	=79	=79	=79	=79	=79	=79	=79	=79	=79	=79	=79	=79	=79	=79	=79	=79	=79	=79	=79	=79	=79	=79	=79	=79	=79
8D/	.	8D/	.	8d\L	.	8f#/L 8A/	.	16dd'\LL	.	8d/L	.	2r	.	8D\	.	8r	.	8dd'/L	8r	.	8dd'/L	8r	.	2r	.	8dddd'\L	.
.	.	.	.	.	.	.	.	16dd'\	.	.	.	.	.	.	.	.	.	.	.	.	.	.	.	.	.	.	.
8r	.	8r	.	8d\J	.	8f#/J 8A/	.	16ff#\	.	8f#/	.	.	.	8r	.	8ff#\ 8dd\	.	(8ff#/J	8f#\	.	(8ff#/J	8a\	.	.	.	(8ffff#\J	.
.	.	.	.	.	.	.	.	16ff#\JJ	.	.	.	.	.	.	.	.	.	.	.	.	.	.	.	.	.	.	.
8AA/	.	8AA/	.	8e\L 8c#\	.	8g/L 8A/	.	16ee\LL	.	8e/	.	.	.	8AA/	.	8r	.	8ee/L)	8r	.	8ee/L)	8r	.	.	.	8eeee\L)	.
.	.	.	.	.	.	.	.	16ee\	.	.	.	.	.	.	.	.	.	.	.	.	.	.	.	.	.	.	.
8r	.	8r	.	8e\J 8c#\	.	8g/J 8A/	.	16aa'\	.	8a/J	.	.	.	8r	.	8ee/ 8a/	.	8aa/J	8g\	.	8aa/J	8cc#\	.	.	.	8aaaa\J	.
.	.	.	.	.	.	.	.	16aa'\JJ	.	.	.	.	.	.	.	.	.	.	.	.	.	.	.	.	.	.	.
=80	=80	=80	=80	=80	=80	=80	=80	=80	=80	=80	=80	=80	=80	=80	=80	=80	=80	=80	=80	=80	=80	=80	=80	=80	=80	=80	=80
8D/L	.	8D/L	.	8d\L	.	8f#/L 8A/	.	16ff#'\LL	.	8f#/L	.	2r	.	8D/L	.	8ff#\L 8dd\	.	8ff#'/L	8f#\L	.	8ff#'/L	8dd\L	.	2r	.	8ffff#'\L	.
.	.	.	.	.	.	.	.	16ff#'\	.	.	.	.	.	.	.	.	.	.	.	.	.	.	.	.	.	.	.
8AA/J	.	8AA/J	.	8e\J 8c#\	.	8g/J 8A/	.	16ee'\	.	8e/J	.	.	.	8AA/J	.	8ee\J 8a\	.	8ee'/J	8g\J	.	8ee'/J	8cc#\J	.	.	.	8eeee'\J	.
.	.	.	.	.	.	.	.	16ee'\JJ	.	.	.	.	.	.	.	.	.	.	.	.	.	.	.	.	.	.	.
4D/	.	4D\	.	4d\	.	4f#/ 4A/	.	4dd\	.	4d/	.	.	.	4D/	.	4dd/ 4f#/	.	4dd/	4f#\	.	4dd/	4dd\	.	.	.	4dddd\	.
*	*	*	*	*	*	*	*	*	*	*	*	*	*	*	*	*	*	*v	*v	*	*	*	*	*	*	*	*
*	*	*	*	*	*	*	*	*	*	*	*	*	*	*	*	*	*	*	*	*v	*v	*	*	*	*	*
==	==	==	==	==	==	==	==	==	==	==	==	==	==	==	==	==	==	==	==	==	==	==	==	==	==
*-	*-	*-	*-	*-	*-	*-	*-	*-	*-	*-	*-	*-	*-	*-	*-	*-	*-	*-	*-	*-	*-	*-	*-	*-	*-
!!!system-decoration: ({s1,s2}s3,s4,s5,s6,s7,s8,{s9,s10},s11,s12,s13)
!!!RDF**dynam: ff = ffo
!!!RDF**kern: > = above
!!!RDF**kern: < = below
!!!RDF**kern: | = vertical stroke
!!!ENC: Berenika Jozajtis
!!!END: 2021-06-10
!!!EED: Andrzej Borzym
!!!EEV: 2021-11-06
